;FLAVOR:Marlin
;TIME:13951
;Filament used: 7.39629m
;Layer height: 0.2
;MINX:67.95
;MINY:51.2
;MINZ:0.2
;MAXX:152.05
;MAXY:168.8
;MAXZ:36
;Generated with Cura_SteamEngine 4.4.1
M140 S60
M105
M190 S60
M104 S230
M105
M109 S230
M82 ;absolute extrusion mode
M201 X500.00 Y500.00 Z100.00 E5000.00 ;Setup machine max acceleration
M203 X500.00 Y500.00 Z10.00 E50.00 ;Setup machine max feedrate
M204 P500.00 R1000.00 T500.00 ;Setup Print/Retract/Travel acceleration
M205 X8.00 Y8.00 Z0.40 E5.00 ;Setup Jerk
M220 S100 ;Reset Feedrate
M221 S100 ;Reset Flowrate

G28 ;Home

G92 E0 ;Reset Extruder
G1 Z2.0 F3000 ;Move Z Axis up
G1 X10.1 Y20 Z0.28 F5000.0 ;Move to start position
G1 X10.1 Y200.0 Z0.28 F1500.0 E15 ;Draw the first line
G1 X10.4 Y200.0 Z0.28 F5000.0 ;Move to side a little
G1 X10.4 Y20 Z0.28 F1500.0 E30 ;Draw the second line
G92 E0 ;Reset Extruder
G1 Z2.0 F3000 ;Move Z Axis up

G92 E0
G92 E0
G1 F2400 E-4
;LAYER_COUNT:180
;LAYER:0
M107
G0 F6000 X69.83 Y54.922 Z0.2
;TYPE:SKIRT
G1 F2400 E0
G1 F900 X70.373 Y54.349 E0.02626
G1 X70.751 Y54.024 E0.04284
G1 X70.83 Y53.922 E0.04713
G1 X71.373 Y53.349 E0.07338
G1 X71.972 Y52.834 E0.09966
G1 X72.62 Y52.383 E0.12592
G1 X73.311 Y51.999 E0.15221
G1 X74.036 Y51.687 E0.17846
G1 X74.789 Y51.45 E0.20472
G1 X75.563 Y51.291 E0.231
G1 X76.348 Y51.21 E0.25725
G1 X76.75 Y51.2 E0.27062
G1 X144.25 Y51.2 E2.51568
G1 X145.039 Y51.24 E2.54196
G1 X145.819 Y51.359 E2.5682
G1 X146.584 Y51.557 E2.59448
G1 X147.324 Y51.831 E2.62073
G1 X148.033 Y52.179 E2.647
G1 X148.704 Y52.597 E2.67329
G1 X149.328 Y53.08 E2.69953
G1 X149.901 Y53.623 E2.72579
G1 X150.416 Y54.222 E2.75206
G1 X150.867 Y54.87 E2.77832
G1 X151.251 Y55.561 E2.80462
G1 X151.563 Y56.286 E2.83087
G1 X151.8 Y57.039 E2.85712
G1 X151.959 Y57.813 E2.88341
G1 X152.04 Y58.598 E2.90965
G1 X152.05 Y59 E2.92303
G1 X152.05 Y160.996 E6.31543
G1 X152.01 Y161.785 E6.3417
G1 X151.891 Y162.565 E6.36795
G1 X151.693 Y163.33 E6.39423
G1 X151.419 Y164.07 E6.42048
G1 X151.071 Y164.779 E6.44674
G1 X150.653 Y165.45 E6.47304
G1 X150.17 Y166.074 E6.49928
G1 X149.627 Y166.647 E6.52554
G1 X149.028 Y167.162 E6.55181
G1 X148.38 Y167.613 E6.57807
G1 X147.689 Y167.997 E6.60437
G1 X146.964 Y168.309 E6.63062
G1 X146.211 Y168.546 E6.65687
G1 X145.437 Y168.705 E6.68315
G1 X144.652 Y168.786 E6.7094
G1 X144.25 Y168.796 E6.72278
G1 X76.75 Y168.8 E8.96784
G1 X75.962 Y168.76 E8.99408
G1 X75.181 Y168.641 E9.02035
G1 X74.417 Y168.443 E9.0466
G1 X73.676 Y168.169 E9.07288
G1 X72.967 Y167.821 E9.09915
G1 X72.297 Y167.404 E9.1254
G1 X71.672 Y166.921 E9.15167
G1 X71.099 Y166.377 E9.17795
G1 X70.776 Y166 E9.19446
G1 X70.672 Y165.92 E9.19882
G1 X70.099 Y165.377 E9.22508
G1 X69.584 Y164.778 E9.25135
G1 X69.133 Y164.13 E9.27761
G1 X68.749 Y163.439 E9.30391
G1 X68.437 Y162.714 E9.33016
G1 X68.2 Y161.961 E9.35641
G1 X68.041 Y161.187 E9.3827
G1 X67.96 Y160.402 E9.40894
G1 X67.95 Y160 E9.42232
G1 X67.95 Y60 E12.74833
G1 X67.99 Y59.211 E12.77461
G1 X68.109 Y58.431 E12.80085
G1 X68.307 Y57.666 E12.82713
G1 X68.581 Y56.926 E12.85338
G1 X68.929 Y56.217 E12.87965
G1 X69.347 Y55.546 E12.90594
G1 X69.83 Y54.922 E12.93219
G0 F6000 X70.225 Y55.077
G1 F900 X70.766 Y54.53 E12.95777
G1 X71.046 Y54.3 E12.96983
G1 X71.225 Y54.077 E12.97934
G1 X71.766 Y53.53 E13.00493
G1 X72.361 Y53.042 E13.03052
G1 X73.003 Y52.619 E13.05609
G1 X73.686 Y52.264 E13.08169
G1 X74.401 Y51.983 E13.10725
G1 X75.143 Y51.777 E13.13286
G1 X75.901 Y51.649 E13.15843
G1 X76.75 Y51.6 E13.18671
G1 X144.25 Y51.6 E15.43177
G1 X145.018 Y51.64 E15.45735
G1 X145.778 Y51.759 E15.48293
G1 X146.521 Y51.957 E15.50851
G1 X147.24 Y52.231 E15.5341
G1 X147.926 Y52.578 E15.55967
G1 X148.573 Y52.994 E15.58525
G1 X149.173 Y53.475 E15.61083
G1 X149.72 Y54.016 E15.63642
G1 X150.208 Y54.611 E15.66201
G1 X150.631 Y55.253 E15.68758
G1 X150.986 Y55.936 E15.71319
G1 X151.267 Y56.651 E15.73874
G1 X151.473 Y57.393 E15.76435
G1 X151.601 Y58.151 E15.78992
G1 X151.65 Y59 E15.8182
G1 X151.65 Y160.996 E19.2106
G1 X151.61 Y161.764 E19.23618
G1 X151.491 Y162.524 E19.26177
G1 X151.293 Y163.267 E19.28734
G1 X151.019 Y163.986 E19.31293
G1 X150.672 Y164.672 E19.3385
G1 X150.256 Y165.319 E19.36409
G1 X149.775 Y165.919 E19.38966
G1 X149.234 Y166.466 E19.41525
G1 X148.639 Y166.954 E19.44085
G1 X147.997 Y167.377 E19.46642
G1 X147.314 Y167.732 E19.49202
G1 X146.599 Y168.013 E19.51757
G1 X145.857 Y168.219 E19.54318
G1 X145.099 Y168.347 E19.56875
G1 X144.25 Y168.396 E19.59704
G1 X76.75 Y168.4 E21.8421
G1 X75.982 Y168.36 E21.86768
G1 X75.222 Y168.241 E21.89326
G1 X74.479 Y168.043 E21.91884
G1 X73.76 Y167.769 E21.94443
G1 X73.074 Y167.422 E21.97
G1 X72.427 Y167.006 E21.99558
G1 X71.827 Y166.525 E22.02116
G1 X71.28 Y165.984 E22.04675
G1 X71.05 Y165.704 E22.0588
G1 X70.827 Y165.525 E22.06831
G1 X70.28 Y164.984 E22.0939
G1 X69.792 Y164.389 E22.11949
G1 X69.369 Y163.747 E22.14506
G1 X69.014 Y163.064 E22.17067
G1 X68.733 Y162.349 E22.19622
G1 X68.527 Y161.607 E22.22183
G1 X68.399 Y160.849 E22.2474
G1 X68.35 Y160 E22.27568
G1 X68.35 Y60 E25.6017
G1 X68.39 Y59.232 E25.62727
G1 X68.509 Y58.472 E25.65286
G1 X68.707 Y57.729 E25.67843
G1 X68.981 Y57.01 E25.70403
G1 X69.328 Y56.324 E25.7296
G1 X69.744 Y55.677 E25.75518
G1 X70.225 Y55.077 E25.78076
G0 F6000 X70.621 Y55.237
G1 F900 X71.158 Y54.716 E25.80564
G1 X71.338 Y54.576 E25.81323
G1 X71.621 Y54.237 E25.82791
G1 X72.158 Y53.716 E25.8528
G1 X72.748 Y53.257 E25.87766
G1 X73.384 Y52.862 E25.90256
G1 X74.058 Y52.538 E25.92744
G1 X74.763 Y52.288 E25.95231
G1 X75.491 Y52.114 E25.97721
G1 X76.233 Y52.019 E26.00209
G1 X76.75 Y52 E26.0193
G1 X144.25 Y52 E28.26436
G1 X144.997 Y52.04 E28.28924
G1 X145.735 Y52.159 E28.3141
G1 X146.457 Y52.357 E28.339
G1 X147.153 Y52.63 E28.36387
G1 X147.816 Y52.977 E28.38876
G1 X148.439 Y53.392 E28.41365
G1 X149.013 Y53.871 E28.43852
G1 X149.534 Y54.408 E28.4634
G1 X149.993 Y54.998 E28.48827
G1 X150.388 Y55.634 E28.51317
G1 X150.712 Y56.308 E28.53804
G1 X150.962 Y57.013 E28.56292
G1 X151.136 Y57.741 E28.58782
G1 X151.231 Y58.483 E28.6127
G1 X151.25 Y59 E28.6299
G1 X151.25 Y160.996 E32.0223
G1 X151.21 Y161.743 E32.04719
G1 X151.091 Y162.481 E32.07205
G1 X150.893 Y163.203 E32.09695
G1 X150.62 Y163.899 E32.12181
G1 X150.273 Y164.562 E32.1467
G1 X149.858 Y165.185 E32.1716
G1 X149.379 Y165.759 E32.19647
G1 X148.842 Y166.28 E32.22135
G1 X148.252 Y166.739 E32.24621
G1 X147.616 Y167.134 E32.27112
G1 X146.942 Y167.458 E32.29599
G1 X146.237 Y167.708 E32.32087
G1 X145.509 Y167.882 E32.34576
G1 X144.767 Y167.977 E32.37064
G1 X144.25 Y167.996 E32.38785
G1 X76.75 Y168 E34.63291
G1 X76.003 Y167.96 E34.65779
G1 X75.265 Y167.841 E34.68265
G1 X74.543 Y167.643 E34.70755
G1 X73.847 Y167.37 E34.73242
G1 X73.184 Y167.024 E34.75729
G1 X72.562 Y166.609 E34.78216
G1 X71.987 Y166.13 E34.80706
G1 X71.467 Y165.592 E34.83194
G1 X71.328 Y165.413 E34.83948
G1 X70.987 Y165.129 E34.85424
G1 X70.466 Y164.592 E34.87912
G1 X70.007 Y164.002 E34.90399
G1 X69.612 Y163.366 E34.92889
G1 X69.288 Y162.692 E34.95376
G1 X69.038 Y161.987 E34.97864
G1 X68.864 Y161.259 E35.00354
G1 X68.769 Y160.517 E35.02842
G1 X68.75 Y160 E35.04562
G1 X68.75 Y60 E38.37164
G1 X68.79 Y59.253 E38.39652
G1 X68.909 Y58.515 E38.42138
G1 X69.107 Y57.793 E38.44628
G1 X69.38 Y57.097 E38.47115
G1 X69.727 Y56.434 E38.49604
G1 X70.142 Y55.811 E38.52093
G1 X70.621 Y55.237 E38.5458
G0 F6000 X70.539 Y55.95
G1 F900 X71.015 Y55.402 E38.56994
G1 X71.549 Y54.909 E38.59411
G1 X71.62 Y54.857 E38.59704
G1 X72.015 Y54.402 E38.61708
G1 X72.549 Y53.909 E38.64125
G1 X73.134 Y53.479 E38.6654
G1 X73.763 Y53.115 E38.68957
G1 X74.428 Y52.822 E38.71374
G1 X75.121 Y52.604 E38.73791
G1 X75.833 Y52.464 E38.76204
G1 X76.75 Y52.4 E38.79261
G1 X144.25 Y52.4 E41.03767
G1 X144.975 Y52.44 E41.06182
G1 X145.692 Y52.559 E41.086
G1 X146.391 Y52.757 E41.11016
G1 X147.064 Y53.03 E41.13432
G1 X147.703 Y53.375 E41.15847
G1 X148.3 Y53.789 E41.18263
G1 X148.848 Y54.265 E41.20678
G1 X149.341 Y54.799 E41.23095
G1 X149.771 Y55.384 E41.2551
G1 X150.135 Y56.013 E41.27927
G1 X150.428 Y56.678 E41.30344
G1 X150.646 Y57.371 E41.3276
G1 X150.786 Y58.083 E41.35173
G1 X150.85 Y59 E41.38231
G1 X150.85 Y160.996 E44.77471
G1 X150.81 Y161.721 E44.79886
G1 X150.691 Y162.438 E44.82303
G1 X150.493 Y163.137 E44.8472
G1 X150.22 Y163.81 E44.87135
G1 X149.875 Y164.449 E44.89551
G1 X149.461 Y165.046 E44.91967
G1 X148.985 Y165.594 E44.94381
G1 X148.451 Y166.087 E44.96798
G1 X147.866 Y166.517 E44.99213
G1 X147.237 Y166.881 E45.0163
G1 X146.572 Y167.174 E45.04047
G1 X145.879 Y167.392 E45.06464
G1 X145.167 Y167.532 E45.08877
G1 X144.25 Y167.596 E45.11934
G1 X76.75 Y167.6 E47.3644
G1 X76.025 Y167.56 E47.38855
G1 X75.309 Y167.441 E47.41269
G1 X74.61 Y167.243 E47.43686
G1 X73.937 Y166.97 E47.46101
G1 X73.297 Y166.625 E47.4852
G1 X72.7 Y166.212 E47.50934
G1 X72.152 Y165.735 E47.5335
G1 X71.66 Y165.201 E47.55766
G1 X71.609 Y165.132 E47.56051
G1 X71.152 Y164.735 E47.58064
G1 X70.659 Y164.201 E47.60482
G1 X70.229 Y163.616 E47.62896
G1 X69.865 Y162.987 E47.65313
G1 X69.572 Y162.322 E47.6773
G1 X69.354 Y161.629 E47.70147
G1 X69.214 Y160.917 E47.7256
G1 X69.15 Y160 E47.75618
G1 X69.15 Y60 E51.08219
G1 X69.19 Y59.275 E51.10634
G1 X69.309 Y58.558 E51.13051
G1 X69.507 Y57.859 E51.15468
G1 X69.78 Y57.186 E51.17883
G1 X70.125 Y56.547 E51.20299
G1 X70.539 Y55.95 E51.22715
G0 F6000 X70.935 Y56.094
G1 F900 X71.409 Y55.573 E51.25058
G1 X71.899 Y55.144 E51.27224
G1 X71.935 Y55.094 E51.27429
G1 X72.409 Y54.573 E51.29771
G1 X72.939 Y54.109 E51.32114
G1 X73.518 Y53.709 E51.34455
G1 X74.139 Y53.377 E51.36797
G1 X74.793 Y53.117 E51.39138
G1 X75.473 Y52.933 E51.41481
G1 X76.169 Y52.827 E51.43822
G1 X76.75 Y52.8 E51.45757
G1 X144.25 Y52.8 E53.70263
G1 X144.953 Y52.84 E53.72605
G1 X145.647 Y52.959 E53.74947
G1 X146.322 Y53.157 E53.77286
G1 X146.971 Y53.429 E53.79627
G1 X147.585 Y53.774 E53.81969
G1 X148.156 Y54.185 E53.84309
G1 X148.677 Y54.659 E53.86652
G1 X149.141 Y55.189 E53.88995
G1 X149.541 Y55.768 E53.91335
G1 X149.873 Y56.389 E53.93678
G1 X150.133 Y57.043 E53.96018
G1 X150.317 Y57.723 E53.98361
G1 X150.423 Y58.419 E54.00703
G1 X150.45 Y59 E54.02638
G1 X150.45 Y160.996 E57.41878
G1 X150.41 Y161.699 E57.4422
G1 X150.291 Y162.393 E57.46562
G1 X150.093 Y163.068 E57.48901
G1 X149.821 Y163.717 E57.51242
G1 X149.476 Y164.331 E57.53584
G1 X149.065 Y164.902 E57.55924
G1 X148.591 Y165.423 E57.58267
G1 X148.061 Y165.887 E57.6061
G1 X147.482 Y166.287 E57.6295
G1 X146.861 Y166.619 E57.65292
G1 X146.207 Y166.879 E57.67633
G1 X145.527 Y167.063 E57.69976
G1 X144.831 Y167.169 E57.72318
G1 X144.25 Y167.196 E57.74252
G1 X76.75 Y167.2 E59.98758
G1 X76.048 Y167.16 E60.01097
G1 X75.354 Y167.041 E60.03439
G1 X74.678 Y166.843 E60.05782
G1 X74.029 Y166.571 E60.08122
G1 X73.415 Y166.227 E60.10463
G1 X72.844 Y165.815 E60.12805
G1 X72.323 Y165.341 E60.15148
G1 X71.897 Y164.853 E60.17302
G1 X71.844 Y164.815 E60.17519
G1 X71.323 Y164.341 E60.19862
G1 X70.859 Y163.811 E60.22205
G1 X70.459 Y163.232 E60.24545
G1 X70.127 Y162.611 E60.26887
G1 X69.867 Y161.957 E60.29228
G1 X69.683 Y161.277 E60.31571
G1 X69.577 Y160.581 E60.33913
G1 X69.55 Y160 E60.35847
G1 X69.55 Y60 E63.68449
G1 X69.59 Y59.297 E63.70791
G1 X69.709 Y58.603 E63.73133
G1 X69.907 Y57.928 E63.75472
G1 X70.179 Y57.279 E63.77813
G1 X70.524 Y56.665 E63.80155
G1 X70.935 Y56.094 E63.82495
G0 F6000 X71.332 Y56.242
G1 F900 X71.803 Y55.751 E63.84758
G1 X72.189 Y55.432 E63.86424
G1 X72.332 Y55.242 E63.87215
G1 X72.803 Y54.751 E63.89478
G1 X73.328 Y54.317 E63.91743
G1 X73.9 Y53.948 E63.94007
G1 X74.512 Y53.649 E63.96273
G1 X75.154 Y53.424 E63.98535
G1 X75.819 Y53.275 E64.00802
G1 X76.75 Y53.2 E64.03908
G1 X144.25 Y53.2 E66.28414
G1 X144.93 Y53.24 E66.3068
G1 X145.6 Y53.359 E66.32943
G1 X146.252 Y53.556 E66.35209
G1 X146.876 Y53.828 E66.37473
G1 X147.464 Y54.172 E66.39738
G1 X148.008 Y54.582 E66.42004
G1 X148.499 Y55.053 E66.44267
G1 X148.933 Y55.578 E66.46533
G1 X149.302 Y56.15 E66.48797
G1 X149.601 Y56.762 E66.51062
G1 X149.826 Y57.404 E66.53325
G1 X149.975 Y58.069 E66.55591
G1 X150.05 Y59 E66.58698
G1 X150.05 Y160.996 E69.97938
G1 X150.01 Y161.676 E70.00204
G1 X149.891 Y162.346 E70.02467
G1 X149.694 Y162.998 E70.04732
G1 X149.422 Y163.622 E70.06996
G1 X149.078 Y164.21 E70.09262
G1 X148.668 Y164.754 E70.11528
G1 X148.197 Y165.245 E70.13791
G1 X147.672 Y165.679 E70.16056
G1 X147.1 Y166.048 E70.1832
G1 X146.488 Y166.347 E70.20586
G1 X145.846 Y166.572 E70.22848
G1 X145.181 Y166.721 E70.25115
G1 X144.25 Y166.796 E70.28222
G1 X76.75 Y166.8 E72.52727
G1 X76.071 Y166.76 E72.5499
G1 X75.4 Y166.641 E72.57256
G1 X74.749 Y166.444 E72.59519
G1 X74.124 Y166.172 E72.61786
G1 X73.536 Y165.828 E72.64051
G1 X72.993 Y165.418 E72.66314
G1 X72.501 Y164.948 E72.68578
G1 X72.18 Y164.56 E72.70252
G1 X71.992 Y164.418 E72.71036
G1 X71.501 Y163.947 E72.73299
G1 X71.067 Y163.422 E72.75565
G1 X70.698 Y162.85 E72.77829
G1 X70.399 Y162.238 E72.80094
G1 X70.174 Y161.596 E72.82357
G1 X70.025 Y160.931 E72.84623
G1 X69.95 Y160 E72.8773
G1 X69.95 Y60 E76.20331
G1 X69.99 Y59.32 E76.22597
G1 X70.109 Y58.65 E76.2486
G1 X70.306 Y57.998 E76.27125
G1 X70.578 Y57.374 E76.2939
G1 X70.922 Y56.786 E76.31655
G1 X71.332 Y56.242 E76.33921
G0 F6000 X71.728 Y56.397
G1 F900 X72.195 Y55.935 E76.36106
G1 X72.469 Y55.723 E76.37258
G1 X72.728 Y55.397 E76.38643
G1 X73.195 Y54.935 E76.40828
G1 X73.715 Y54.534 E76.43012
G1 X74.279 Y54.198 E76.45195
G1 X74.881 Y53.934 E76.47382
G1 X75.51 Y53.744 E76.49567
G1 X76.157 Y53.633 E76.51751
G1 X76.75 Y53.6 E76.53726
G1 X144.25 Y53.6 E78.78232
G1 X144.906 Y53.64 E78.80418
G1 X145.552 Y53.759 E78.82603
G1 X146.179 Y53.956 E78.84788
G1 X146.777 Y54.228 E78.86974
G1 X147.338 Y54.57 E78.89159
G1 X147.853 Y54.978 E78.91344
G1 X148.315 Y55.445 E78.93529
G1 X148.716 Y55.965 E78.95713
G1 X149.052 Y56.529 E78.97897
G1 X149.316 Y57.131 E79.00083
G1 X149.506 Y57.76 E79.02268
G1 X149.617 Y58.407 E79.04452
G1 X149.65 Y59 E79.06427
G1 X149.65 Y160.996 E82.45667
G1 X149.61 Y161.652 E82.47853
G1 X149.491 Y162.298 E82.50038
G1 X149.294 Y162.925 E82.52224
G1 X149.022 Y163.523 E82.54409
G1 X148.68 Y164.084 E82.56594
G1 X148.272 Y164.599 E82.58779
G1 X147.805 Y165.061 E82.60964
G1 X147.285 Y165.462 E82.63148
G1 X146.721 Y165.798 E82.65332
G1 X146.119 Y166.062 E82.67518
G1 X145.49 Y166.252 E82.69704
G1 X144.843 Y166.363 E82.71887
G1 X144.25 Y166.396 E82.73862
G1 X76.75 Y166.4 E84.98368
G1 X76.095 Y166.36 E85.00551
G1 X75.449 Y166.241 E85.02736
G1 X74.822 Y166.044 E85.04922
G1 X74.223 Y165.773 E85.07108
G1 X73.663 Y165.43 E85.09292
G1 X73.147 Y165.023 E85.11478
G1 X72.686 Y164.555 E85.13663
G1 X72.474 Y164.281 E85.14815
G1 X72.147 Y164.022 E85.16203
G1 X71.685 Y163.555 E85.18388
G1 X71.284 Y163.035 E85.20572
G1 X70.948 Y162.471 E85.22755
G1 X70.684 Y161.869 E85.24942
G1 X70.494 Y161.24 E85.27127
G1 X70.383 Y160.593 E85.2931
G1 X70.35 Y160 E85.31286
G1 X70.35 Y60 E88.63887
G1 X70.39 Y59.344 E88.66073
G1 X70.509 Y58.698 E88.68258
G1 X70.706 Y58.071 E88.70444
G1 X70.978 Y57.473 E88.72629
G1 X71.32 Y56.912 E88.74814
G1 X71.728 Y56.397 E88.76999
G0 F6000 X72.123 Y56.559
G1 F900 X72.586 Y56.129 E88.79101
G1 X72.736 Y56.021 E88.79716
G1 X73.123 Y55.559 E88.8172
G1 X73.586 Y55.129 E88.83822
G1 X74.1 Y54.76 E88.85926
G1 X74.656 Y54.46 E88.88028
G1 X75.245 Y54.232 E88.90128
G1 X75.859 Y54.08 E88.92232
G1 X76.75 Y54 E88.95208
G1 X144.25 Y54 E91.19713
G1 X144.881 Y54.04 E91.21816
G1 X145.502 Y54.159 E91.23919
G1 X146.102 Y54.356 E91.2602
G1 X146.674 Y54.627 E91.28125
G1 X147.206 Y54.967 E91.30225
G1 X147.691 Y55.373 E91.32329
G1 X148.121 Y55.836 E91.3443
G1 X148.49 Y56.35 E91.36535
G1 X148.79 Y56.906 E91.38636
G1 X149.018 Y57.495 E91.40737
G1 X149.17 Y58.109 E91.42841
G1 X149.25 Y59 E91.45816
G1 X149.25 Y160.996 E94.85056
G1 X149.21 Y161.627 E94.87159
G1 X149.091 Y162.248 E94.89262
G1 X148.894 Y162.848 E94.91362
G1 X148.623 Y163.42 E94.93468
G1 X148.283 Y163.952 E94.95568
G1 X147.877 Y164.437 E94.97671
G1 X147.414 Y164.867 E94.99773
G1 X146.9 Y165.236 E95.01877
G1 X146.344 Y165.536 E95.03979
G1 X145.755 Y165.764 E95.06079
G1 X145.141 Y165.916 E95.08183
G1 X144.25 Y165.996 E95.11159
G1 X76.75 Y166 E97.35665
G1 X76.119 Y165.96 E97.37767
G1 X75.499 Y165.841 E97.39867
