;FLAVOR:Marlin
;TIME:20747
;Filament used: 12.126m
;Layer height: 0.2
;MINX:72.5
;MINY:45
;MINZ:0.2
;MAXX:147.5
;MAXY:175
;MAXZ:45
;Generated with Cura_SteamEngine 4.4.1
M140 S60
M105
M190 S60
M104 S240
M105
M109 S240
M82 ;absolute extrusion mode
M201 X500.00 Y500.00 Z100.00 E5000.00 ;Setup machine max acceleration
M203 X500.00 Y500.00 Z10.00 E50.00 ;Setup machine max feedrate
M204 P500.00 R1000.00 T500.00 ;Setup Print/Retract/Travel acceleration
M205 X8.00 Y8.00 Z0.40 E5.00 ;Setup Jerk
M220 S100 ;Reset Feedrate
M221 S100 ;Reset Flowrate

G28 ;Home

G92 E0 ;Reset Extruder
G1 Z2.0 F3000 ;Move Z Axis up
G1 X10.1 Y20 Z0.28 F5000.0 ;Move to start position
G1 X10.1 Y200.0 Z0.28 F1500.0 E15 ;Draw the first line
G1 X10.4 Y200.0 Z0.28 F5000.0 ;Move to side a little
G1 X10.4 Y20 Z0.28 F1500.0 E30 ;Draw the second line
G92 E0 ;Reset Extruder
G1 Z2.0 F3000 ;Move Z Axis up

G92 E0
G92 E0
G1 F2400 E-4.5
;LAYER_COUNT:225
;LAYER:0
M107
G1 F300 Z0.4
G0 F6000 X74.496 Y49.703 Z0.4
;TYPE:SKIRT
G1 F300 Z0.2
G1 F2400 E0
G1 F900 X75.066 Y48.958 E0.0312
G1 X75.698 Y48.264 E0.06242
G1 X76.386 Y47.627 E0.0936
G1 X77.126 Y47.051 E0.12479
G1 X77.912 Y46.539 E0.15599
G1 X78.739 Y46.097 E0.18718
G1 X79.601 Y45.727 E0.21838
G1 X80.491 Y45.431 E0.24958
G1 X81.403 Y45.213 E0.28077
G1 X82.33 Y45.072 E0.31195
G1 X83.201 Y45.013 E0.34099
G1 X83.522 Y45.004 E0.35167
G1 X83.83 Y45 E0.36191
G1 X135.793 Y45 E2.09021
G1 X135.951 Y45.001 E2.09547
G1 X136.649 Y45.011 E2.11868
G1 X137.585 Y45.065 E2.14987
G1 X138.513 Y45.197 E2.18104
G1 X139.427 Y45.409 E2.21225
G1 X140.319 Y45.698 E2.24344
G1 X141.184 Y46.061 E2.27464
G1 X142.014 Y46.497 E2.30582
G1 X142.805 Y47.002 E2.33703
G1 X143.549 Y47.573 E2.36823
G1 X144.242 Y48.205 E2.39942
G1 X144.879 Y48.893 E2.43061
G1 X145.454 Y49.634 E2.4618
G1 X145.965 Y50.42 E2.49298
G1 X146.407 Y51.248 E2.5242
G1 X146.776 Y52.11 E2.55539
G1 X147.071 Y53 E2.58657
G1 X147.289 Y53.912 E2.61776
G1 X147.429 Y54.84 E2.64897
G1 X147.487 Y55.701 E2.67768
G1 X147.496 Y56.021 E2.68832
G1 X147.5 Y56.33 E2.6986
G1 X147.5 Y163.264 E6.25524
G1 X147.499 Y163.4 E6.25977
G1 X147.49 Y164.127 E6.28395
G1 X147.439 Y165.064 E6.31516
G1 X147.307 Y165.992 E6.34633
G1 X147.098 Y166.906 E6.37752
G1 X146.811 Y167.799 E6.40872
G1 X146.449 Y168.665 E6.43993
G1 X146.015 Y169.496 E6.47112
G1 X145.511 Y170.287 E6.50231
G1 X144.942 Y171.032 E6.53349
G1 X144.311 Y171.727 E6.56471
G1 X143.624 Y172.365 E6.5959
G1 X142.885 Y172.942 E6.62708
G1 X142.099 Y173.454 E6.65828
G1 X141.273 Y173.897 E6.68945
G1 X140.411 Y174.269 E6.72068
G1 X139.522 Y174.565 E6.75184
G1 X138.61 Y174.785 E6.78305
G1 X137.683 Y174.926 E6.81423
G1 X136.799 Y174.987 E6.84371
G1 X136.478 Y174.996 E6.85439
G1 X136.17 Y175 E6.86463
G1 X84.207 Y175 E8.59293
G1 X84.065 Y174.999 E8.59765
G1 X83.367 Y174.99 E8.62087
G1 X82.431 Y174.938 E8.65205
G1 X81.502 Y174.806 E8.68326
G1 X80.588 Y174.596 E8.71445
G1 X79.695 Y174.309 E8.74565
G1 X78.83 Y173.946 E8.77685
G1 X77.999 Y173.512 E8.80803
G1 X77.208 Y173.008 E8.83922
G1 X76.463 Y172.438 E8.87042
G1 X75.769 Y171.807 E8.90162
G1 X75.132 Y171.12 E8.93278
G1 X74.555 Y170.38 E8.96399
G1 X74.043 Y169.594 E8.99519
G1 X73.6 Y168.767 E9.0264
G1 X73.229 Y167.906 E9.05758
G1 X72.933 Y167.016 E9.08877
G1 X72.714 Y166.104 E9.11997
G1 X72.573 Y165.177 E9.15116
G1 X72.513 Y164.288 E9.18079
G1 X72.504 Y163.955 E9.19187
G1 X72.5 Y163.658 E9.20175
G1 X72.5 Y56.674 E12.76005
G1 X72.501 Y56.525 E12.76501
G1 X72.51 Y55.86 E12.78713
G1 X72.563 Y54.924 E12.81831
G1 X72.695 Y53.995 E12.84952
G1 X72.906 Y53.081 E12.88072
G1 X73.194 Y52.189 E12.91189
G1 X73.557 Y51.324 E12.94309
G1 X73.992 Y50.493 E12.97429
G1 X74.496 Y49.703 E13.00546
G0 F6000 X74.892 Y49.835
G1 F900 X75.461 Y49.111 E13.03609
G1 X76.089 Y48.439 E13.06668
G1 X76.774 Y47.823 E13.09732
G1 X77.51 Y47.27 E13.12794
G1 X78.291 Y46.782 E13.15857
G1 X79.111 Y46.364 E13.18918
G1 X79.965 Y46.019 E13.21981
G1 X80.845 Y45.749 E13.25043
G1 X81.745 Y45.557 E13.28104
G1 X82.659 Y45.443 E13.31167
G1 X83.212 Y45.413 E13.33009
G1 X83.533 Y45.404 E13.34077
G1 X83.83 Y45.4 E13.35065
G1 X135.793 Y45.4 E15.07895
G1 X135.945 Y45.401 E15.084
G1 X136.643 Y45.411 E15.10722
G1 X137.562 Y45.464 E15.13784
G1 X138.473 Y45.597 E15.16846
G1 X139.369 Y45.808 E15.19908
G1 X140.243 Y46.096 E15.22968
G1 X141.09 Y46.459 E15.26033
G1 X141.901 Y46.894 E15.29094
G1 X142.671 Y47.398 E15.32155
G1 X143.395 Y47.967 E15.35218
G1 X144.067 Y48.597 E15.38282
G1 X144.682 Y49.282 E15.41343
G1 X145.235 Y50.018 E15.44405
G1 X145.722 Y50.799 E15.47467
G1 X146.139 Y51.62 E15.50529
G1 X146.484 Y52.474 E15.53593
G1 X146.753 Y53.354 E15.56653
G1 X146.945 Y54.255 E15.59717
G1 X147.058 Y55.168 E15.62777
G1 X147.087 Y55.712 E15.64589
G1 X147.096 Y56.032 E15.65654
G1 X147.1 Y56.33 E15.66645
G1 X147.1 Y163.264 E19.22309
G1 X147.099 Y163.395 E19.22745
G1 X147.09 Y164.122 E19.25163
G1 X147.039 Y165.041 E19.28224
G1 X146.908 Y165.953 E19.31289
G1 X146.698 Y166.849 E19.3435
G1 X146.412 Y167.724 E19.37411
G1 X146.051 Y168.571 E19.40474
G1 X145.617 Y169.383 E19.43536
G1 X145.115 Y170.155 E19.46599
G1 X144.547 Y170.88 E19.49662
G1 X143.919 Y171.553 E19.52724
G1 X143.235 Y172.169 E19.55785
G1 X142.5 Y172.723 E19.58846
G1 X141.72 Y173.212 E19.61908
G1 X140.9 Y173.631 E19.64971
G1 X140.047 Y173.977 E19.68033
G1 X139.167 Y174.248 E19.71095
G1 X138.267 Y174.441 E19.74157
G1 X137.353 Y174.556 E19.77221
G1 X136.788 Y174.587 E19.79103
G1 X136.467 Y174.596 E19.80171
G1 X136.17 Y174.6 E19.81159
G1 X84.207 Y174.6 E21.53988
G1 X84.07 Y174.599 E21.54444
G1 X83.372 Y174.59 E21.56766
G1 X82.453 Y174.538 E21.59827
G1 X81.542 Y174.407 E21.62888
G1 X80.646 Y174.197 E21.65949
G1 X79.771 Y173.91 E21.69012
G1 X78.924 Y173.548 E21.72076
G1 X78.112 Y173.114 E21.75138
G1 X77.341 Y172.612 E21.78198
G1 X76.616 Y172.044 E21.81261
G1 X75.943 Y171.415 E21.84325
G1 X75.328 Y170.731 E21.87385
G1 X74.774 Y169.996 E21.90446
G1 X74.286 Y169.215 E21.93509
G1 X73.867 Y168.395 E21.96572
G1 X73.521 Y167.542 E21.99633
G1 X73.251 Y166.662 E22.02695
G1 X73.058 Y165.761 E22.05759
G1 X72.944 Y164.848 E22.0882
G1 X72.913 Y164.277 E22.10722
G1 X72.904 Y163.944 E22.1183
G1 X72.9 Y163.658 E22.12781
G1 X72.9 Y56.674 E25.68611
G1 X72.901 Y56.531 E25.69087
G1 X72.91 Y55.866 E25.71299
G1 X72.962 Y54.946 E25.74364
G1 X73.094 Y54.035 E25.77425
G1 X73.305 Y53.139 E25.80487
G1 X73.592 Y52.264 E25.8355
G1 X73.955 Y51.418 E25.86612
G1 X74.389 Y50.606 E25.89674
G1 X74.892 Y49.835 E25.92736
G0 F6000 X75.288 Y49.971
G1 F900 X75.855 Y49.267 E25.95742
G1 X76.481 Y48.617 E25.98744
G1 X77.162 Y48.024 E26.01747
G1 X77.894 Y47.494 E26.04753
G1 X78.669 Y47.031 E26.07755
G1 X79.482 Y46.638 E26.10759
G1 X80.327 Y46.318 E26.13764
G1 X81.196 Y46.075 E26.16765
G1 X82.084 Y45.909 E26.1977
G1 X83.223 Y45.813 E26.23572
G1 X83.544 Y45.804 E26.2464
G1 X83.83 Y45.8 E26.25591
G1 X135.793 Y45.8 E27.98421
G1 X135.939 Y45.801 E27.98906
G1 X136.637 Y45.811 E28.01228
G1 X137.539 Y45.864 E28.04233
G1 X138.432 Y45.996 E28.07236
G1 X139.31 Y46.207 E28.10239
G1 X140.166 Y46.495 E28.13243
G1 X140.993 Y46.857 E28.16246
G1 X141.785 Y47.292 E28.19251
G1 X142.536 Y47.794 E28.22256
G1 X143.239 Y48.361 E28.2526
G1 X143.889 Y48.988 E28.28263
G1 X144.481 Y49.67 E28.31267
G1 X145.011 Y50.401 E28.3427
G1 X145.473 Y51.177 E28.37274
G1 X145.866 Y51.99 E28.40277
G1 X146.184 Y52.835 E28.4328
G1 X146.427 Y53.705 E28.46285
G1 X146.592 Y54.593 E28.49289
G1 X146.687 Y55.723 E28.5306
G1 X146.696 Y56.043 E28.54125
G1 X146.7 Y56.33 E28.5508
G1 X146.7 Y163.264 E32.10744
G1 X146.699 Y163.39 E32.11163
G1 X146.69 Y164.117 E32.13581
G1 X146.639 Y165.019 E32.16586
G1 X146.508 Y165.913 E32.19591
G1 X146.299 Y166.791 E32.22593
G1 X146.013 Y167.648 E32.25598
G1 X145.652 Y168.476 E32.28602
G1 X145.22 Y169.268 E32.31603
G1 X144.719 Y170.02 E32.34608
G1 X144.153 Y170.724 E32.37612
G1 X143.528 Y171.375 E32.40614
G1 X142.847 Y171.969 E32.4362
G1 X142.116 Y172.5 E32.46625
G1 X141.342 Y172.964 E32.49626
G1 X140.529 Y173.358 E32.52631
G1 X139.685 Y173.678 E32.55633
G1 X138.815 Y173.923 E32.58639
G1 X137.928 Y174.089 E32.61641
G1 X136.777 Y174.187 E32.65483
G1 X136.456 Y174.196 E32.66551
G1 X136.17 Y174.2 E32.67502
G1 X84.207 Y174.2 E34.40332
G1 X84.075 Y174.199 E34.40771
G1 X83.377 Y174.19 E34.43093
G1 X82.476 Y174.139 E34.46094
G1 X81.582 Y174.007 E34.491
G1 X80.704 Y173.798 E34.52102
G1 X79.847 Y173.511 E34.55108
G1 X79.02 Y173.15 E34.58109
G1 X78.227 Y172.717 E34.61114
G1 X77.476 Y172.216 E34.64117
G1 X76.772 Y171.65 E34.67121
G1 X76.121 Y171.024 E34.70125
G1 X75.528 Y170.343 E34.73128
G1 X74.998 Y169.612 E34.76132
G1 X74.534 Y168.837 E34.79136
G1 X74.14 Y168.024 E34.82141
G1 X73.82 Y167.18 E34.85143
G1 X73.576 Y166.31 E34.88148
G1 X73.41 Y165.422 E34.91153
G1 X73.313 Y164.267 E34.95008
G1 X73.304 Y163.934 E34.96116
G1 X73.3 Y163.658 E34.97034
G1 X73.3 Y56.674 E38.52864
G1 X73.301 Y56.536 E38.53323
G1 X73.31 Y55.871 E38.55535
G1 X73.362 Y54.969 E38.5854
G1 X73.494 Y54.076 E38.61543
G1 X73.704 Y53.198 E38.64545
G1 X73.991 Y52.341 E38.67551
G1 X74.353 Y51.514 E38.70554
G1 X74.786 Y50.722 E38.73556
G1 X75.288 Y49.971 E38.76561
G1 F2400 E34.26561
G1 F300 Z0.4
;MESH:Geh??use2Unten.stl
G0 F6000 X84.1 Y56.6 Z0.4
;TYPE:WALL-INNER
G1 F300 Z0.2
G1 F2400 E38.76561
G1 F900 X133.9 Y56.6 E40.42196
G1 X133.9 Y163.4 E43.97414
G1 X84.1 Y163.4 E45.6305
G1 X84.1 Y56.6 E49.18268
G0 F6000 X84.5 Y57
G1 F900 X133.5 Y57 E50.81243
G1 X133.5 Y163 E54.338
G1 X84.5 Y163 E55.96775
G1 X84.5 Y57 E59.49332
G0 F6000 X84.9 Y57.4
G1 F900 X133.1 Y57.4 E61.09646
G1 X133.1 Y162.6 E64.59543
G1 X84.9 Y162.6 E66.19856
G1 X84.9 Y57.4 E69.69753
G1 F2400 E65.19753
G1 F300 Z0.4
G0 F6000 X135.1 Y56.6 Z0.4
G1 F300 Z0.2
G1 F2400 E69.69753
G1 F900 X135.299 Y56.6 E69.70415
G1 X135.9 Y56.6 E69.72414
G1 X135.9 Y163.4 E73.27632
G1 X135.105 Y163.4 E73.30276
G1 X135.1 Y56.799 E76.84833
G1 X135.1 Y56.6 E76.85261
G1 F2400 E72.35261
G1 F300 Z0.4
G0 F6000 X134.3 Y163.8 Z0.4
;TYPE:WALL-OUTER
G1 F300 Z0.2
G1 F2400 E76.85261
G1 F900 X83.7 Y163.8 E78.53557
G1 X83.7 Y56.2 E82.11436
G1 X136.3 Y56.2 E83.86385
G1 X136.3 Y163.8 E87.44264
G1 X134.705 Y163.8 E87.49569
G1 X134.7 Y56.688 E91.05825
G1 X134.3 Y56.688 E91.07155
G1 X134.3 Y163.8 E94.63411
G1 F2400 E90.13411
G1 F300 Z0.4
G0 F6000 X132.71 Y162.21 Z0.4
;TYPE:SKIN
G1 F300 Z0.2
G1 F2400 E94.63411
G1 F900 X85.29 Y162.21 E96.2113
G1 X85.29 Y57.79 E99.68433
G1 X132.71 Y57.79 E101.26152
G1 X132.71 Y162.21 E104.73455
G1 F2400 E100.23455
G1 F300 Z0.4
G0 F6000 X85.681 Y162.049 Z0.4
G1 F300 Z0.2
G1 F2400 E104.73455
G1 F900 X85.449 Y161.817 E104.74546
G0 F6000 X85.449 Y161.251
G1 F900 X86.247 Y162.049 E104.78299
G0 F6000 X86.812 Y162.049
G1 F900 X85.449 Y160.685 E104.84713
G0 F6000 X85.449 Y160.12
G1 F900 X87.378 Y162.049 E104.93786
G0 F6000 X87.944 Y162.049
G1 F900 X85.449 Y159.554 E105.05522
G0 F6000 X85.449 Y158.988
G1 F900 X88.509 Y162.049 E105.19918
G0 F6000 X89.075 Y162.049
G1 F900 X85.449 Y158.423 E105.36973
G0 F6000 X85.449 Y157.857
G1 F900 X89.641 Y162.049 E105.56691
G0 F6000 X90.207 Y162.049
G1 F900 X85.449 Y157.291 E105.79071
G0 F6000 X85.449 Y156.725
G1 F900 X90.772 Y162.049 E106.04112
G0 F6000 X91.338 Y162.049
G1 F900 X85.449 Y156.16 E106.31812
G0 F6000 X85.449 Y155.594
G1 F900 X91.904 Y162.049 E106.62174
G0 F6000 X92.469 Y162.049
G1 F900 X85.449 Y155.028 E106.95196
G0 F6000 X85.449 Y154.463
G1 F900 X93.035 Y162.049 E107.30878
G0 F6000 X93.601 Y162.049
G1 F900 X85.449 Y153.897 E107.69223
G0 F6000 X85.449 Y153.331
G1 F900 X94.166 Y162.049 E108.10227
G0 F6000 X94.732 Y162.049
G1 F900 X85.449 Y152.766 E108.53892
G0 F6000 X85.449 Y152.2
G1 F900 X95.298 Y162.049 E109.00218
G0 F6000 X95.863 Y162.049
G1 F900 X85.449 Y151.634 E109.49205
G0 F6000 X85.449 Y151.069
G1 F900 X96.429 Y162.049 E110.00852
G0 F6000 X96.995 Y162.049
G1 F900 X85.449 Y150.503 E110.5516
G0 F6000 X85.449 Y149.937
G1 F900 X97.56 Y162.049 E111.12129
G0 F6000 X98.126 Y162.049
G1 F900 X85.449 Y149.372 E111.71758
G0 F6000 X85.449 Y148.806
G1 F900 X98.692 Y162.049 E112.34049
G0 F6000 X99.257 Y162.049
G1 F900 X85.449 Y148.24 E112.99
G0 F6000 X85.449 Y147.675
G1 F900 X99.823 Y162.049 E113.66611
G0 F6000 X100.389 Y162.049
G1 F900 X85.449 Y147.109 E114.36884
G0 F6000 X85.449 Y146.543
G1 F900 X100.955 Y162.049 E115.09819
G0 F6000 X101.52 Y162.049
G1 F900 X85.449 Y145.977 E115.85415
G0 F6000 X85.449 Y145.412
G1 F900 X102.086 Y162.049 E116.6367
G0 F6000 X102.652 Y162.049
G1 F900 X85.449 Y144.846 E117.44588
G0 F6000 X85.449 Y144.28
G1 F900 X103.217 Y162.049 E118.28165
G0 F6000 X103.783 Y162.049
G1 F900 X85.449 Y143.715 E119.14403
G0 F6000 X85.449 Y143.149
G1 F900 X104.349 Y162.049 E120.03303
G0 F6000 X104.914 Y162.049
G1 F900 X85.449 Y142.583 E120.94862
G0 F6000 X85.449 Y142.018
G1 F900 X105.48 Y162.049 E121.89082
G0 F6000 X106.046 Y162.049
G1 F900 X85.449 Y141.452 E122.85964
G0 F6000 X85.449 Y140.886
G1 F900 X106.611 Y162.049 E123.85506
G0 F6000 X107.177 Y162.049
G1 F900 X85.449 Y140.321 E124.87708
G0 F6000 X85.449 Y139.755
G1 F900 X107.743 Y162.049 E125.92572
G0 F6000 X108.308 Y162.049
G1 F900 X85.449 Y139.189 E127.00096
G0 F6000 X85.449 Y138.624
G1 F900 X108.874 Y162.049 E128.1028
G0 F6000 X109.44 Y162.049
G1 F900 X85.449 Y138.058 E129.23126
G0 F6000 X85.449 Y137.492
G1 F900 X110.006 Y162.049 E130.38635
G0 F6000 X110.571 Y162.049
G1 F900 X85.449 Y136.926 E131.56804
G0 F6000 X85.449 Y136.361
G1 F900 X111.137 Y162.049 E132.77632
G0 F6000 X111.703 Y162.049
G1 F900 X85.449 Y135.795 E134.01123
G0 F6000 X85.449 Y135.229
G1 F900 X112.268 Y162.049 E135.27274
G0 F6000 X112.834 Y162.049
G1 F900 X85.449 Y134.664 E136.56084
G0 F6000 X85.449 Y134.098
G1 F900 X113.4 Y162.049 E137.87557
G0 F6000 X113.965 Y162.049
G1 F900 X85.449 Y133.532 E139.2169
G0 F6000 X85.449 Y132.967
G1 F900 X114.531 Y162.049 E140.58483
G0 F6000 X115.097 Y162.049
G1 F900 X85.449 Y132.401 E141.97938
G0 F6000 X85.449 Y131.835
G1 F900 X115.662 Y162.049 E143.40053
G0 F6000 X116.228 Y162.049
G1 F900 X85.449 Y131.27 E144.84828
G0 F6000 X85.449 Y130.704
G1 F900 X116.794 Y162.049 E146.32265
G0 F6000 X117.359 Y162.049
G1 F900 X85.449 Y130.138 E147.82362
G0 F6000 X85.449 Y129.573
G1 F900 X117.925 Y162.049 E149.3512
G0 F6000 X118.491 Y162.049
G1 F900 X85.449 Y129.007 E150.90539
G0 F6000 X85.449 Y128.441
G1 F900 X119.056 Y162.049 E152.48618
G0 F6000 X119.622 Y162.049
G1 F900 X85.449 Y127.876 E154.09358
G0 F6000 X85.449 Y127.31
G1 F900 X120.188 Y162.049 E155.72759
G0 F6000 X120.754 Y162.049
G1 F900 X85.449 Y126.744 E157.38823
G0 F6000 X85.449 Y126.178
G1 F900 X121.319 Y162.049 E159.07547
G0 F6000 X121.885 Y162.049
G1 F900 X85.449 Y125.613 E160.78931
G0 F6000 X85.449 Y125.047
G1 F900 X122.451 Y162.049 E162.52977
G0 F6000 X123.016 Y162.049
G1 F900 X85.449 Y124.481 E164.29683
G0 F6000 X85.449 Y123.916
G1 F900 X123.582 Y162.049 E166.09049
G0 F6000 X124.148 Y162.049
G1 F900 X85.449 Y123.35 E167.91077
G0 F6000 X85.449 Y122.784
G1 F900 X124.713 Y162.049 E169.75765
G0 F6000 X125.279 Y162.049
G1 F900 X85.449 Y122.219 E171.63113
G0 F6000 X85.449 Y121.653
G1 F900 X125.845 Y162.049 E173.53124
G0 F6000 X126.41 Y162.049
G1 F900 X85.449 Y121.087 E175.45794
G0 F6000 X85.449 Y120.522
G1 F900 X126.976 Y162.049 E177.41124
G0 F6000 X127.542 Y162.049
G1 F900 X85.449 Y119.956 E179.39117
G0 F6000 X85.449 Y119.39
G1 F900 X128.107 Y162.049 E181.39769
G0 F6000 X128.673 Y162.049
G1 F900 X85.449 Y118.825 E183.43082
G0 F6000 X85.449 Y118.259
G1 F900 X129.239 Y162.049 E185.49057
G0 F6000 X129.805 Y162.049
G1 F900 X85.449 Y117.693 E187.57694
G0 F6000 X85.449 Y117.127
G1 F900 X130.37 Y162.049 E189.68991
G0 F6000 X130.936 Y162.049
G1 F900 X85.449 Y116.562 E191.82947
G0 F6000 X85.449 Y115.996
G1 F900 X131.502 Y162.049 E193.99567
G0 F6000 X132.067 Y162.049
G1 F900 X85.449 Y115.43 E196.18846
G0 F6000 X85.449 Y114.865
G1 F900 X132.549 Y161.965 E198.4039
G0 F6000 X132.549 Y161.399
G1 F900 X85.449 Y114.299 E200.61934
G0 F6000 X85.449 Y113.733
G1 F900 X132.549 Y160.834 E202.8348
G0 F6000 X132.549 Y160.268
G1 F900 X85.449 Y113.168 E205.05024
G0 F6000 X85.449 Y112.602
G1 F900 X132.549 Y159.702 E207.26568
G0 F6000 X132.549 Y159.137
G1 F900 X85.449 Y112.036 E209.48114
G0 F6000 X85.449 Y111.471
