;FLAVOR:Marlin
;TIME:20867
;Filament used: 9.29463m
;Layer height: 0.2
;MINX:72.25
;MINY:55
;MINZ:0.2
;MAXX:147.75
;MAXY:165
;MAXZ:36
;Generated with Cura_SteamEngine 4.4.1
M140 S60
M105
M190 S60
M104 S240
M105
M109 S240
M82 ;absolute extrusion mode
M201 X500.00 Y500.00 Z100.00 E5000.00 ;Setup machine max acceleration
M203 X500.00 Y500.00 Z10.00 E50.00 ;Setup machine max feedrate
M204 P500.00 R1000.00 T500.00 ;Setup Print/Retract/Travel acceleration
M205 X8.00 Y8.00 Z0.40 E5.00 ;Setup Jerk
M220 S100 ;Reset Feedrate
M221 S100 ;Reset Flowrate

G28 ;Home

G92 E0 ;Reset Extruder
G1 Z2.0 F3000 ;Move Z Axis up
G1 X10.1 Y20 Z0.28 F5000.0 ;Move to start position
G1 X10.1 Y200.0 Z0.28 F1500.0 E15 ;Draw the first line
G1 X10.4 Y200.0 Z0.28 F5000.0 ;Move to side a little
G1 X10.4 Y20 Z0.28 F1500.0 E30 ;Draw the second line
G92 E0 ;Reset Extruder
G1 Z2.0 F3000 ;Move Z Axis up

G92 E0
G92 E0
G1 F1500 E-5
;LAYER_COUNT:180
;LAYER:0
M107
G0 F6000 X72.868 Y57.176 Z0.2
;TYPE:SKIRT
G1 F1500 E0
G1 F900 X73.196 Y56.813 E0.01627
G1 X73.579 Y56.508 E0.03256
G1 X74.007 Y56.27 E0.04884
G1 X74.417 Y56.122 E0.06334
G1 X74.696 Y55.813 E0.07719
G1 X75.079 Y55.508 E0.09347
G1 X75.507 Y55.27 E0.10976
G1 X75.967 Y55.104 E0.12603
G1 X76.448 Y55.015 E0.1423
G1 X76.75 Y55 E0.15235
G1 X144.75 Y55 E2.41404
G1 X145.238 Y55.04 E2.43033
G1 X145.713 Y55.159 E2.44662
G1 X146.162 Y55.353 E2.46288
G1 X146.574 Y55.618 E2.47918
G1 X146.937 Y55.946 E2.49545
G1 X147.242 Y56.329 E2.51173
G1 X147.48 Y56.757 E2.52802
G1 X147.646 Y57.217 E2.54429
G1 X147.735 Y57.698 E2.56056
G1 X147.75 Y58 E2.57061
G1 X147.75 Y161.996 E6.02953
G1 X147.71 Y162.484 E6.04582
G1 X147.591 Y162.959 E6.06211
G1 X147.397 Y163.408 E6.07837
G1 X147.132 Y163.82 E6.09467
G1 X146.804 Y164.183 E6.11094
G1 X146.421 Y164.488 E6.12722
G1 X145.993 Y164.726 E6.14351
G1 X145.533 Y164.892 E6.15978
G1 X145.052 Y164.981 E6.17605
G1 X144.75 Y164.996 E6.1861
G1 X76.75 Y165 E8.44779
G1 X76.262 Y164.96 E8.46408
G1 X75.787 Y164.841 E8.48037
G1 X75.338 Y164.647 E8.49663
G1 X74.927 Y164.382 E8.5129
G1 X74.563 Y164.054 E8.5292
G1 X74.42 Y163.874 E8.53684
G1 X74.287 Y163.841 E8.5414
G1 X73.838 Y163.647 E8.55767
G1 X73.426 Y163.382 E8.57396
G1 X73.063 Y163.054 E8.59023
G1 X72.758 Y162.671 E8.60652
G1 X72.52 Y162.243 E8.62281
G1 X72.354 Y161.783 E8.63907
G1 X72.265 Y161.302 E8.65534
G1 X72.25 Y161 E8.6654
G1 X72.25 Y59 E12.05793
G1 X72.29 Y58.512 E12.07422
G1 X72.409 Y58.037 E12.0905
G1 X72.603 Y57.588 E12.10677
G1 X72.868 Y57.176 E12.12306
G0 F6000 X73.265 Y57.321
G1 F900 X73.588 Y57 E12.13821
G1 X73.963 Y56.741 E12.15337
G1 X74.377 Y56.551 E12.16852
G1 X74.654 Y56.479 E12.17804
G1 X74.765 Y56.321 E12.18446
G1 X75.088 Y56 E12.19961
G1 X75.463 Y55.741 E12.21477
G1 X75.877 Y55.551 E12.22992
G1 X76.318 Y55.436 E12.24507
G1 X76.75 Y55.4 E12.25949
G1 X144.75 Y55.4 E14.52118
G1 X145.204 Y55.44 E14.53634
G1 X145.644 Y55.558 E14.55149
G1 X146.056 Y55.752 E14.56664
G1 X146.429 Y56.015 E14.58182
G1 X146.75 Y56.338 E14.59696
G1 X147.009 Y56.713 E14.61212
G1 X147.199 Y57.127 E14.62727
G1 X147.314 Y57.568 E14.64243
G1 X147.35 Y58 E14.65685
G1 X147.35 Y161.996 E18.11577
G1 X147.31 Y162.45 E18.13093
G1 X147.192 Y162.89 E18.14608
G1 X146.998 Y163.302 E18.16123
G1 X146.735 Y163.675 E18.17641
G1 X146.412 Y163.996 E18.19155
G1 X146.037 Y164.255 E18.20671
G1 X145.623 Y164.445 E18.22186
G1 X145.182 Y164.56 E18.23702
G1 X144.75 Y164.596 E18.25144
G1 X76.75 Y164.6 E20.51313
G1 X76.296 Y164.56 E20.52829
G1 X75.856 Y164.442 E20.54344
G1 X75.444 Y164.248 E20.55858
G1 X75.071 Y163.986 E20.57374
G1 X74.751 Y163.662 E20.58889
G1 X74.654 Y163.522 E20.59455
G1 X74.356 Y163.442 E20.60482
G1 X73.944 Y163.248 E20.61996
G1 X73.571 Y162.985 E20.63514
G1 X73.25 Y162.662 E20.65029
G1 X72.991 Y162.287 E20.66545
G1 X72.801 Y161.873 E20.6806
G1 X72.686 Y161.432 E20.69576
G1 X72.65 Y161 E20.71017
G1 X72.65 Y59 E24.10271
G1 X72.69 Y58.546 E24.11787
G1 X72.808 Y58.106 E24.13302
G1 X73.002 Y57.694 E24.14816
G1 X73.265 Y57.321 E24.16334
G0 F6000 X73.401 Y57.809
G1 F900 X73.66 Y57.48 E24.17727
G1 X73.977 Y57.206 E24.19121
G1 X74.34 Y56.997 E24.20514
G1 X74.737 Y56.861 E24.2191
G1 X74.883 Y56.844 E24.22399
G1 X74.901 Y56.809 E24.22529
G1 X75.16 Y56.48 E24.23922
G1 X75.477 Y56.206 E24.25316
G1 X75.84 Y55.997 E24.26709
G1 X76.237 Y55.861 E24.28105
G1 X76.75 Y55.8 E24.29823
G1 X144.75 Y55.8 E26.55992
G1 X145.167 Y55.84 E26.57385
G1 X145.569 Y55.958 E26.58779
G1 X145.941 Y56.151 E26.60172
G1 X146.27 Y56.41 E26.61565
G1 X146.544 Y56.727 E26.62959
G1 X146.753 Y57.09 E26.64352
G1 X146.889 Y57.487 E26.65748
G1 X146.95 Y58 E26.67466
G1 X146.95 Y161.996 E30.13358
G1 X146.91 Y162.413 E30.14751
G1 X146.792 Y162.815 E30.16145
G1 X146.599 Y163.187 E30.17539
G1 X146.34 Y163.516 E30.18931
G1 X146.023 Y163.79 E30.20325
G1 X145.66 Y163.999 E30.21718
G1 X145.263 Y164.135 E30.23114
G1 X144.75 Y164.196 E30.24832
G1 X76.75 Y164.2 E32.51001
G1 X76.333 Y164.16 E32.52394
G1 X75.931 Y164.042 E32.53788
G1 X75.559 Y163.85 E32.5518
G1 X75.23 Y163.59 E32.56575
G1 X74.956 Y163.273 E32.57969
G1 X74.894 Y163.166 E32.5838
G1 X74.833 Y163.16 E32.58584
G1 X74.431 Y163.042 E32.59977
G1 X74.059 Y162.849 E32.61371
G1 X73.73 Y162.59 E32.62764
G1 X73.456 Y162.273 E32.64157
G1 X73.247 Y161.91 E32.6555
G1 X73.111 Y161.513 E32.66946
G1 X73.05 Y161 E32.68664
G1 X73.05 Y59 E36.07918
G1 X73.09 Y58.583 E36.09311
G1 X73.208 Y58.181 E36.10705
G1 X73.401 Y57.809 E36.12099
G0 F6000 X73.798 Y57.936
G1 F900 X74.053 Y57.655 E36.13361
G1 X74.362 Y57.435 E36.14622
G1 X74.709 Y57.283 E36.15882
G1 X75.134 Y57.218 E36.17312
G1 X75.298 Y56.936 E36.18397
G1 X75.553 Y56.655 E36.19659
G1 X75.862 Y56.435 E36.20921
G1 X76.209 Y56.283 E36.22181
G1 X76.75 Y56.2 E36.24001
G1 X144.75 Y56.2 E38.5017
G1 X145.127 Y56.24 E38.51431
G1 X145.487 Y56.358 E38.52691
G1 X145.814 Y56.548 E38.53949
G1 X146.095 Y56.803 E38.55211
G1 X146.315 Y57.112 E38.56473
G1 X146.467 Y57.459 E38.57733
G1 X146.55 Y58 E38.59553
G1 X146.55 Y161.996 E42.05445
G1 X146.51 Y162.373 E42.06706
G1 X146.392 Y162.733 E42.07966
G1 X146.202 Y163.06 E42.09224
G1 X145.947 Y163.341 E42.10486
G1 X145.638 Y163.561 E42.11748
G1 X145.291 Y163.713 E42.13008
G1 X144.75 Y163.796 E42.14828
G1 X76.75 Y163.8 E44.40997
G1 X76.373 Y163.76 E44.42258
G1 X76.013 Y163.642 E44.43518
G1 X75.686 Y163.452 E44.44776
G1 X75.405 Y163.197 E44.46038
G1 X75.185 Y162.889 E44.47297
G1 X75.141 Y162.788 E44.47663
G1 X74.873 Y162.76 E44.4856
G1 X74.513 Y162.642 E44.4982
G1 X74.186 Y162.452 E44.51078
G1 X73.905 Y162.197 E44.5234
G1 X73.685 Y161.888 E44.53601
G1 X73.533 Y161.541 E44.54861
G1 X73.45 Y161 E44.56682
G1 X73.45 Y59 E47.95935
G1 X73.49 Y58.623 E47.97196
G1 X73.608 Y58.263 E47.98456
G1 X73.798 Y57.936 E47.99714
G0 F6000 X74.195 Y58.079
G1 F900 X74.443 Y57.856 E48.00823
G1 X74.737 Y57.697 E48.01935
G1 X75.061 Y57.613 E48.03048
G1 X75.25 Y57.6 E48.03678
G1 X75.416 Y57.6 E48.0423
G1 X75.507 Y57.356 E48.05097
G1 X75.695 Y57.079 E48.0621
G1 X75.943 Y56.856 E48.07319
G1 X76.237 Y56.697 E48.08431
G1 X76.561 Y56.613 E48.09544
G1 X76.75 Y56.6 E48.10174
G1 X144.75 Y56.6 E50.36343
G1 X145.082 Y56.64 E50.37455
G1 X145.394 Y56.757 E50.38564
G1 X145.671 Y56.945 E50.39677
G1 X145.894 Y57.193 E50.40786
G1 X146.053 Y57.487 E50.41898
G1 X146.137 Y57.811 E50.43011
G1 X146.15 Y58 E50.43642
G1 X146.15 Y161.996 E53.89534
G1 X146.11 Y162.328 E53.90646
G1 X145.993 Y162.64 E53.91754
G1 X145.805 Y162.917 E53.92868
G1 X145.557 Y163.14 E53.93977
G1 X145.263 Y163.299 E53.95089
G1 X144.939 Y163.383 E53.96202
G1 X144.75 Y163.396 E53.96832
G1 X76.75 Y163.4 E56.23001
G1 X76.418 Y163.36 E56.24113
G1 X76.106 Y163.243 E56.25221
G1 X75.829 Y163.055 E56.26335
G1 X75.606 Y162.807 E56.27444
G1 X75.447 Y162.513 E56.28556
G1 X75.418 Y162.4 E56.28944
G1 X75.25 Y162.4 E56.29503
G1 X74.918 Y162.36 E56.30615
G1 X74.606 Y162.243 E56.31723
G1 X74.329 Y162.055 E56.32837
G1 X74.106 Y161.807 E56.33946
G1 X73.947 Y161.513 E56.35057
G1 X73.863 Y161.189 E56.36171
G1 X73.85 Y161 E56.36801
G1 X73.85 Y59 E59.76054
G1 X73.89 Y58.668 E59.77166
G1 X74.007 Y58.356 E59.78275
G1 X74.195 Y58.079 E59.79388
G0 F6000 X74.406 Y58.464
G1 F900 X74.589 Y58.249 E59.80327
G1 X74.825 Y58.095 E59.81265
G1 X75.095 Y58.012 E59.82204
G1 X75.25 Y58 E59.82721
G1 X75.75 Y58 E59.84384
G1 X75.79 Y57.721 E59.85322
G1 X75.906 Y57.464 E59.86259
G1 X76.089 Y57.249 E59.87198
G1 X76.325 Y57.095 E59.88136
G1 X76.595 Y57.012 E59.89075
G1 X76.75 Y57 E59.89592
G1 X144.75 Y57 E62.15761
G1 X145.029 Y57.04 E62.16699
G1 X145.286 Y57.156 E62.17636
G1 X145.501 Y57.339 E62.18576
G1 X145.655 Y57.575 E62.19513
G1 X145.738 Y57.845 E62.20452
G1 X145.75 Y58 E62.20969
G1 X145.75 Y161.996 E65.66861
G1 X145.71 Y162.275 E65.67799
G1 X145.594 Y162.532 E65.68737
G1 X145.411 Y162.747 E65.69676
G1 X145.175 Y162.901 E65.70613
G1 X144.905 Y162.984 E65.71553
G1 X144.75 Y162.996 E65.7207
G1 X76.75 Y163 E67.98239
G1 X76.471 Y162.96 E67.99176
G1 X76.214 Y162.844 E68.00114
G1 X75.999 Y162.661 E68.01053
G1 X75.845 Y162.425 E68.0199
G1 X75.762 Y162.155 E68.0293
G1 X75.75 Y162 E68.03447
G1 X75.25 Y162 E68.0511
G1 X74.971 Y161.96 E68.06047
G1 X74.714 Y161.844 E68.06985
G1 X74.499 Y161.661 E68.07924
G1 X74.345 Y161.425 E68.08861
G1 X74.262 Y161.155 E68.09801
G1 X74.25 Y161 E68.10318
G1 X74.25 Y59 E71.49571
G1 X74.29 Y58.721 E71.50509
G1 X74.406 Y58.464 E71.51447
G0 F6000 X74.803 Y58.599
G1 F900 X74.976 Y58.466 E71.52172
G1 X75.25 Y58.4 E71.5311
G1 X76.15 Y58.4 E71.56103
G1 X76.15 Y58 E71.57434
G1 X76.19 Y57.785 E71.58161
G1 X76.303 Y57.599 E71.58885
G1 X76.476 Y57.466 E71.59611
G1 X76.75 Y57.4 E71.60548
G1 X144.75 Y57.4 E73.86717
G1 X144.965 Y57.44 E73.87444
G1 X145.151 Y57.553 E73.88168
G1 X145.284 Y57.726 E73.88894
G1 X145.35 Y58 E73.89831
G1 X145.35 Y161.996 E77.35723
G1 X145.31 Y162.211 E77.36451
G1 X145.197 Y162.397 E77.37175
G1 X145.024 Y162.53 E77.379
G1 X144.75 Y162.596 E77.38838
G1 X76.75 Y162.6 E79.65007
G1 X76.535 Y162.56 E79.65734
G1 X76.349 Y162.447 E79.66458
G1 X76.216 Y162.274 E79.67184
G1 X76.15 Y162 E79.68121
G1 X76.15 Y161.6 E79.69452
G1 X75.25 Y161.6 E79.72445
G1 X75.035 Y161.56 E79.73172
G1 X74.849 Y161.447 E79.73896
G1 X74.716 Y161.274 E79.74622
G1 X74.65 Y161 E79.75559
G1 X74.65 Y59 E83.14813
G1 X74.69 Y58.785 E83.1554
G1 X74.803 Y58.599 E83.16264
G0 F6000 X75.089 Y58.881
G1 F900 X75.25 Y58.8 E83.16863
G1 X76.55 Y58.8 E83.21187
G1 X76.55 Y58 E83.23848
G1 X76.589 Y57.881 E83.24264
G1 X76.75 Y57.8 E83.24864
G1 X144.75 Y57.8 E85.51033
G1 X144.869 Y57.839 E85.51449
G1 X144.95 Y58 E85.52049
G1 X144.95 Y161.996 E88.97941
G1 X144.911 Y162.115 E88.98357
G1 X144.75 Y162.196 E88.98957
G1 X76.75 Y162.2 E91.25126
G1 X76.631 Y162.161 E91.25542
G1 X76.55 Y162 E91.26142
G1 X76.55 Y161.2 E91.28803
G1 X75.25 Y161.2 E91.33126
G1 X75.131 Y161.161 E91.33543
G1 X75.05 Y161 E91.34142
G1 X75.05 Y59 E94.73396
G1 X75.089 Y58.881 E94.73812
G1 F1500 E89.73812
;MESH:geh??use1Neu.stl
G0 F6000 X76.46 Y60.21
G0 X76.432 Y159.818
G0 X77.002 Y159.826
G0 X77.15 Y161.63
G0 X76.95 Y161.8
;TYPE:WALL-OUTER
G1 F1500 E94.73812
G1 F900 X76.95 Y160.8 E94.77138
G1 X75.45 Y160.8 E94.82127
G1 X75.45 Y59.2 E98.2005
G1 X76.95 Y59.2 E98.25039
G1 X76.95 Y58.2 E98.28365
G1 X144.55 Y58.2 E100.53204
G1 X144.55 Y161.8 E103.97779
G1 X76.95 Y161.8 E106.22617
G1 F1500 E101.22617
G0 F6000 X77.15 Y161.63
G0 X129.878 Y160.79
G0 X129.878 Y162.665
G0 X130.009 Y141.378
G0 X129.75 Y141.227
G0 X129.811 Y138.748
G0 X130.026 Y138.62
G0 X130.382 Y81.319
G0 X130.556 Y83.18
G0 X129.878 Y82.364
G0 X129.932 Y82.172
G1 F1500 E106.22617
G1 F900 X130.461 Y82.186 E106.24377
G1 X130.978 Y82.072 E106.26138
G1 X131.452 Y81.838 E106.27896
G1 X131.857 Y81.496 E106.29659
G1 X132.169 Y81.068 E106.31421
G1 X132.368 Y80.578 E106.3318
G1 X132.444 Y80.054 E106.34941
G1 X132.396 Y79.527 E106.36701
G1 X132.219 Y79.028 E106.38462
G1 X131.929 Y78.585 E106.40223
G1 X131.542 Y78.224 E106.41983
G1 X131.079 Y77.966 E106.43746
G1 X130.568 Y77.828 E106.45507
G1 X130.039 Y77.814 E106.47267
G1 X129.522 Y77.928 E106.49028
G1 X129.048 Y78.162 E106.50786
G1 X128.643 Y78.504 E106.52549
G1 X128.331 Y78.932 E106.54311
G1 X128.132 Y79.422 E106.5607
G1 X128.056 Y79.946 E106.57831
G1 X128.104 Y80.473 E106.59591
G1 X128.281 Y80.972 E106.61352
G1 X128.571 Y81.415 E106.63113
G1 X128.958 Y81.776 E106.64873
G1 X129.421 Y82.034 E106.66636
G1 X129.932 Y82.172 E106.68396
G0 F6000 X129.874 Y82.571
;TYPE:WALL-INNER
G1 F900 X130.499 Y82.587 E106.70476
G1 X131.112 Y82.452 E106.72564
G1 X131.673 Y82.175 E106.74645
G1 X132.152 Y81.771 E106.76729
G1 X132.521 Y81.264 E106.78814
G1 X132.757 Y80.683 E106.809
G1 X132.847 Y80.065 E106.82977
G1 X132.79 Y79.441 E106.85061
G1 X132.58 Y78.849 E106.87151
G1 X132.237 Y78.325 E106.89234
G1 X131.779 Y77.898 E106.91316
G1 X131.231 Y77.593 E106.93402
G1 X130.626 Y77.429 E106.95487
G1 X130.001 Y77.413 E106.97566
G1 X129.388 Y77.548 E106.99654
G1 X128.827 Y77.825 E107.01735
G1 X128.348 Y78.229 E107.03819
G1 X127.979 Y78.736 E107.05905
G1 X127.743 Y79.317 E107.07991
G1 X127.653 Y79.935 E107.10068
G1 X127.71 Y80.559 E107.12152
G1 X127.92 Y81.151 E107.14241
G1 X128.263 Y81.675 E107.16324
G1 X128.721 Y82.102 E107.18407
G1 X129.269 Y82.407 E107.20493
G1 X129.874 Y82.571 E107.22578
G0 F6000 X129.816 Y82.97
G1 F900 X130.537 Y82.988 E107.24976
G1 X131.246 Y82.832 E107.27391
G1 X131.894 Y82.512 E107.29795
G1 X132.447 Y82.046 E107.322
G1 X132.873 Y81.46 E107.3461
G1 X133.146 Y80.789 E107.37019
G1 X133.25 Y80.076 E107.39415
G1 X133.184 Y79.355 E107.41824
G1 X132.941 Y78.67 E107.44241
G1 X132.545 Y78.065 E107.46646
G1 X132.016 Y77.572 E107.49051
G1 X131.383 Y77.22 E107.5146
G1 X130.684 Y77.03 E107.53869
G1 X129.963 Y77.012 E107.56268
G1 X129.254 Y77.168 E107.58683
G1 X128.606 Y77.488 E107.61086
G1 X128.053 Y77.954 E107.63492
G1 X127.627 Y78.54 E107.65901
G1 X127.354 Y79.211 E107.68311
G1 X127.25 Y79.924 E107.70707
G1 X127.316 Y80.645 E107.73115
G1 X127.559 Y81.33 E107.75533
G1 X127.955 Y81.935 E107.77938
G1 X128.484 Y82.428 E107.80343
G1 X129.117 Y82.78 E107.82752
G1 X129.816 Y82.97 E107.85161
G1 F1500 E102.85161
G0 F6000 X130.556 Y83.18
G0 X130.382 Y81.319
G0 X130.118 Y138.681
G0 X129.944 Y136.82
G0 X128.54 Y138.408
G0 X128.209 Y138.864
G0 X127.997 Y139.386
G0 X127.916 Y139.942
G0 X127.967 Y140.503
G0 X128.156 Y141.034
G0 X128.464 Y141.505
G0 X128.58 Y141.613
G0 X129.368 Y142.226
G0 X129.421 Y142.034
;TYPE:WALL-OUTER
G1 F1500 E107.85161
G1 F900 X129.932 Y142.172 E107.86921
G1 X130.461 Y142.186 E107.88682
G1 X130.978 Y142.072 E107.90442
G1 X131.452 Y141.838 E107.92201
G1 X131.857 Y141.496 E107.93964
G1 X132.169 Y141.068 E107.95725
G1 X132.368 Y140.578 E107.97484
G1 X132.444 Y140.054 E107.99245
G1 X132.396 Y139.527 E108.01005
G1 X132.219 Y139.028 E108.02766
G1 X131.929 Y138.585 E108.04527
G1 X131.542 Y138.224 E108.06288
G1 X131.079 Y137.966 E108.08051
G1 X130.568 Y137.828 E108.09811
G1 X130.039 Y137.814 E108.11571
G1 X129.522 Y137.928 E108.13332
G1 X129.048 Y138.162 E108.1509
G1 X128.643 Y138.504 E108.16853
G1 X128.331 Y138.932 E108.18615
G1 X128.132 Y139.422 E108.20374
G1 X128.056 Y139.946 E108.22135
G1 X128.104 Y140.473 E108.23895
G1 X128.281 Y140.972 E108.25656
G1 X128.571 Y141.415 E108.27417
G1 X128.958 Y141.776 E108.29177
G1 X129.421 Y142.034 E108.3094
G0 F6000 X129.269 Y142.407
;TYPE:WALL-INNER
G1 F900 X129.874 Y142.571 E108.33025
G1 X130.499 Y142.587 E108.35104
G1 X131.112 Y142.452 E108.37192
G1 X131.673 Y142.175 E108.39273
G1 X132.152 Y141.771 E108.41357
G1 X132.521 Y141.264 E108.43443
G1 X132.757 Y140.683 E108.45529
G1 X132.847 Y140.065 E108.47606
G1 X132.79 Y139.441 E108.4969
G1 X132.58 Y138.849 E108.51779
G1 X132.237 Y138.325 E108.53862
G1 X131.779 Y137.898 E108.55945
G1 X131.231 Y137.593 E108.58031
G1 X130.626 Y137.429 E108.60116
G1 X130.001 Y137.413 E108.62195
G1 X129.388 Y137.548 E108.64283
G1 X128.827 Y137.825 E108.66364
G1 X128.348 Y138.229 E108.68448
G1 X127.979 Y138.736 E108.70533
G1 X127.743 Y139.317 E108.72619
G1 X127.653 Y139.935 E108.74696
G1 X127.71 Y140.559 E108.7678
G1 X127.92 Y141.151 E108.7887
G1 X128.263 Y141.675 E108.80953
G1 X128.721 Y142.102 E108.83035
G1 X129.269 Y142.407 E108.85121
G0 F6000 X129.117 Y142.78
