;FLAVOR:Marlin
;TIME:15165
;Filament used: 8.97648m
;Layer height: 0.2
;MINX:25.758
;MINY:74.346
;MINZ:0.2
;MAXX:155.758
;MAXY:143.346
;MAXZ:55
;Generated with Cura_SteamEngine 4.4.1
M140 S60
M105
M190 S60
M104 S240
M105
M109 S240
M82 ;absolute extrusion mode
M201 X500.00 Y500.00 Z100.00 E5000.00 ;Setup machine max acceleration
M203 X500.00 Y500.00 Z10.00 E50.00 ;Setup machine max feedrate
M204 P500.00 R1000.00 T500.00 ;Setup Print/Retract/Travel acceleration
M205 X8.00 Y8.00 Z0.40 E5.00 ;Setup Jerk
M220 S100 ;Reset Feedrate
M221 S100 ;Reset Flowrate

G28 ;Home

G92 E0 ;Reset Extruder
G1 Z2.0 F3000 ;Move Z Axis up
G1 X10.1 Y20 Z0.28 F5000.0 ;Move to start position
G1 X10.1 Y200.0 Z0.28 F1500.0 E15 ;Draw the first line
G1 X10.4 Y200.0 Z0.28 F5000.0 ;Move to side a little
G1 X10.4 Y20 Z0.28 F1500.0 E30 ;Draw the second line
G92 E0 ;Reset Extruder
G1 Z2.0 F3000 ;Move Z Axis up

G92 E0
G92 E0
G1 F2400 E-4.5
;LAYER_COUNT:275
;LAYER:0
M107
G1 F300 Z0.4
G0 F6000 X31.997 Y75.443 Z0.4
;TYPE:SKIRT
G1 F300 Z0.2
G1 F2400 E0
G1 F900 X32.859 Y75.073 E0.0312
G1 X33.749 Y74.777 E0.0624
G1 X34.661 Y74.559 E0.09358
G1 X35.588 Y74.418 E0.12477
G1 X36.459 Y74.359 E0.15381
G1 X36.78 Y74.35 E0.16449
G1 X37.088 Y74.346 E0.17473
G1 X144.051 Y74.346 E3.73234
G1 X144.209 Y74.347 E3.73759
G1 X144.907 Y74.357 E3.76081
G1 X145.843 Y74.411 E3.79199
G1 X146.771 Y74.543 E3.82317
G1 X147.685 Y74.755 E3.85437
G1 X148.577 Y75.044 E3.88556
G1 X149.442 Y75.407 E3.91676
G1 X150.272 Y75.843 E3.94794
G1 X151.063 Y76.348 E3.97916
G1 X151.807 Y76.919 E4.01035
G1 X152.5 Y77.551 E4.04155
G1 X153.137 Y78.239 E4.07273
G1 X153.712 Y78.98 E4.10393
G1 X154.223 Y79.766 E4.13511
G1 X154.665 Y80.594 E4.16633
G1 X155.034 Y81.456 E4.19751
G1 X155.329 Y82.346 E4.2287
G1 X155.547 Y83.258 E4.25989
G1 X155.687 Y84.186 E4.2911
G1 X155.745 Y85.047 E4.3198
G1 X155.754 Y85.367 E4.33045
G1 X155.758 Y85.676 E4.34073
G1 X155.758 Y131.61 E5.8685
G1 X155.757 Y131.746 E5.87302
G1 X155.748 Y132.473 E5.8972
G1 X155.697 Y133.41 E5.92842
G1 X155.565 Y134.338 E5.95959
G1 X155.356 Y135.252 E5.99078
G1 X155.069 Y136.145 E6.02197
G1 X154.707 Y137.011 E6.05319
G1 X154.273 Y137.842 E6.08437
G1 X153.769 Y138.633 E6.11557
G1 X153.2 Y139.378 E6.14675
G1 X152.569 Y140.073 E6.17797
G1 X151.882 Y140.711 E6.20915
G1 X151.143 Y141.288 E6.24034
G1 X150.357 Y141.8 E6.27154
G1 X149.531 Y142.243 E6.30271
G1 X148.669 Y142.615 E6.33394
G1 X147.78 Y142.911 E6.3651
G1 X146.868 Y143.131 E6.39631
G1 X145.941 Y143.272 E6.42749
G1 X145.057 Y143.333 E6.45696
G1 X144.736 Y143.342 E6.46764
G1 X144.428 Y143.346 E6.47789
G1 X37.465 Y143.346 E10.03549
G1 X37.323 Y143.345 E10.04022
G1 X36.625 Y143.336 E10.06343
G1 X35.689 Y143.284 E10.09461
G1 X34.76 Y143.152 E10.12582
G1 X33.846 Y142.942 E10.15701
G1 X32.953 Y142.655 E10.18821
G1 X32.088 Y142.292 E10.21941
G1 X31.257 Y141.858 E10.25059
G1 X30.466 Y141.354 E10.28179
G1 X29.721 Y140.784 E10.31299
G1 X29.027 Y140.153 E10.34419
G1 X28.39 Y139.466 E10.37535
G1 X27.813 Y138.726 E10.40656
G1 X27.301 Y137.94 E10.43776
G1 X26.858 Y137.113 E10.46896
G1 X26.487 Y136.252 E10.50014
G1 X26.191 Y135.362 E10.53134
G1 X25.972 Y134.45 E10.56253
G1 X25.831 Y133.523 E10.59372
G1 X25.771 Y132.634 E10.62336
G1 X25.762 Y132.301 E10.63444
G1 X25.758 Y132.004 E10.64432
G1 X25.758 Y86.02 E12.17375
G1 X25.759 Y85.871 E12.17871
G1 X25.768 Y85.206 E12.20083
G1 X25.821 Y84.27 E12.23201
G1 X25.953 Y83.341 E12.26322
G1 X26.164 Y82.427 E12.29441
G1 X26.452 Y81.535 E12.32559
G1 X26.815 Y80.67 E12.35679
G1 X27.25 Y79.839 E12.38799
G1 X27.754 Y79.049 E12.41916
G1 X28.324 Y78.304 E12.45036
G1 X28.956 Y77.61 E12.48157
G1 X29.644 Y76.973 E12.51276
G1 X30.384 Y76.397 E12.54395
G1 X31.17 Y75.885 E12.57515
G1 X31.997 Y75.443 E12.60634
G0 F6000 X32.369 Y75.71
G1 F900 X33.223 Y75.365 E12.63697
G1 X34.103 Y75.095 E12.66759
G1 X35.003 Y74.903 E12.6982
G1 X35.917 Y74.789 E12.72883
G1 X36.47 Y74.759 E12.74725
G1 X36.791 Y74.75 E12.75793
G1 X37.088 Y74.746 E12.76781
G1 X144.051 Y74.746 E16.32541
G1 X144.203 Y74.747 E16.33047
G1 X144.901 Y74.757 E16.35369
G1 X145.82 Y74.81 E16.3843
G1 X146.731 Y74.943 E16.41493
G1 X147.627 Y75.154 E16.44554
G1 X148.501 Y75.442 E16.47615
G1 X149.348 Y75.805 E16.5068
G1 X150.159 Y76.24 E16.53741
G1 X150.929 Y76.744 E16.56802
G1 X151.653 Y77.313 E16.59864
G1 X152.325 Y77.943 E16.62928
G1 X152.94 Y78.628 E16.6599
G1 X153.493 Y79.364 E16.69052
G1 X153.98 Y80.145 E16.72113
G1 X154.397 Y80.966 E16.75176
G1 X154.742 Y81.82 E16.78239
G1 X155.011 Y82.7 E16.813
G1 X155.203 Y83.601 E16.84364
G1 X155.316 Y84.514 E16.87424
G1 X155.345 Y85.058 E16.89236
G1 X155.354 Y85.378 E16.903
G1 X155.358 Y85.676 E16.91292
G1 X155.358 Y131.61 E18.44069
G1 X155.357 Y131.741 E18.44504
G1 X155.348 Y132.468 E18.46923
G1 X155.297 Y133.387 E18.49984
G1 X155.166 Y134.299 E18.53048
G1 X154.956 Y135.195 E18.56109
G1 X154.67 Y136.07 E18.59171
G1 X154.309 Y136.917 E18.62233
G1 X153.875 Y137.729 E18.65296
G1 X153.373 Y138.501 E18.68358
G1 X152.805 Y139.226 E18.71422
G1 X152.177 Y139.899 E18.74483
G1 X151.493 Y140.515 E18.77545
G1 X150.758 Y141.069 E18.80606
G1 X149.978 Y141.558 E18.83668
G1 X149.158 Y141.977 E18.86731
G1 X148.305 Y142.323 E18.89792
G1 X147.425 Y142.594 E18.92855
G1 X146.525 Y142.787 E18.95916
G1 X145.611 Y142.902 E18.9898
G1 X145.046 Y142.933 E19.00862
G1 X144.725 Y142.942 E19.0193
G1 X144.428 Y142.946 E19.02918
G1 X37.465 Y142.946 E22.58679
G1 X37.328 Y142.945 E22.59134
G1 X36.63 Y142.936 E22.61456
G1 X35.711 Y142.884 E22.64518
G1 X34.8 Y142.753 E22.67579
G1 X33.904 Y142.543 E22.7064
G1 X33.029 Y142.256 E22.73702
G1 X32.182 Y141.894 E22.76766
G1 X31.37 Y141.46 E22.79828
G1 X30.599 Y140.958 E22.82888
G1 X29.874 Y140.39 E22.85952
G1 X29.201 Y139.761 E22.89016
G1 X28.586 Y139.077 E22.92075
G1 X28.032 Y138.342 E22.95136
G1 X27.544 Y137.561 E22.98199
G1 X27.125 Y136.741 E23.01262
G1 X26.779 Y135.888 E23.04324
G1 X26.509 Y135.008 E23.07385
G1 X26.316 Y134.107 E23.1045
G1 X26.202 Y133.194 E23.1351
G1 X26.171 Y132.623 E23.15412
G1 X26.162 Y132.29 E23.1652
G1 X26.158 Y132.004 E23.17471
G1 X26.158 Y86.02 E24.70415
G1 X26.159 Y85.877 E24.7089
G1 X26.168 Y85.212 E24.73102
G1 X26.22 Y84.292 E24.76167
G1 X26.352 Y83.381 E24.79229
G1 X26.563 Y82.485 E24.8229
G1 X26.85 Y81.61 E24.85353
G1 X27.213 Y80.764 E24.88415
G1 X27.647 Y79.952 E24.91477
G1 X28.15 Y79.181 E24.94539
G1 X28.719 Y78.457 E24.97602
G1 X29.347 Y77.785 E25.00661
G1 X30.032 Y77.169 E25.03725
G1 X30.768 Y76.616 E25.06787
G1 X31.549 Y76.128 E25.0985
G1 X32.369 Y75.71 E25.12911
G0 F6000 X32.74 Y75.984
G1 F900 X33.585 Y75.664 E25.15917
G1 X34.454 Y75.421 E25.18918
G1 X35.342 Y75.255 E25.21922
G1 X36.481 Y75.159 E25.25724
G1 X36.802 Y75.15 E25.26792
G1 X37.088 Y75.146 E25.27744
G1 X144.051 Y75.146 E28.83504
G1 X144.197 Y75.147 E28.8399
G1 X144.895 Y75.157 E28.86311
G1 X145.797 Y75.21 E28.89317
G1 X146.69 Y75.342 E28.92319
G1 X147.568 Y75.553 E28.95322
G1 X148.424 Y75.841 E28.98326
G1 X149.251 Y76.203 E29.01329
G1 X150.043 Y76.638 E29.04334
G1 X150.794 Y77.14 E29.07339
G1 X151.497 Y77.707 E29.10343
G1 X152.147 Y78.334 E29.13346
G1 X152.739 Y79.016 E29.1635
G1 X153.269 Y79.747 E29.19353
G1 X153.731 Y80.523 E29.22357
G1 X154.124 Y81.336 E29.25361
G1 X154.442 Y82.181 E29.28363
G1 X154.685 Y83.051 E29.31368
G1 X154.85 Y83.939 E29.34372
G1 X154.945 Y85.069 E29.38144
G1 X154.954 Y85.389 E29.39208
G1 X154.958 Y85.676 E29.40163
G1 X154.958 Y131.61 E30.9294
G1 X154.957 Y131.736 E30.93359
G1 X154.948 Y132.463 E30.95777
G1 X154.897 Y133.365 E30.98782
G1 X154.766 Y134.259 E31.01787
G1 X154.557 Y135.137 E31.04789
G1 X154.271 Y135.994 E31.07794
G1 X153.91 Y136.822 E31.10798
G1 X153.478 Y137.614 E31.13799
G1 X152.977 Y138.366 E31.16804
G1 X152.411 Y139.07 E31.19809
G1 X151.786 Y139.721 E31.2281
G1 X151.105 Y140.315 E31.25816
G1 X150.374 Y140.846 E31.28821
G1 X149.6 Y141.31 E31.31823
G1 X148.787 Y141.704 E31.34827
G1 X147.943 Y142.024 E31.3783
G1 X147.073 Y142.269 E31.40836
G1 X146.186 Y142.435 E31.43837
G1 X145.035 Y142.533 E31.47679
G1 X144.714 Y142.542 E31.48747
G1 X144.428 Y142.546 E31.49699
G1 X37.465 Y142.546 E35.05459
G1 X37.333 Y142.545 E35.05898
G1 X36.635 Y142.536 E35.0822
G1 X35.734 Y142.485 E35.11221
G1 X34.84 Y142.353 E35.14227
G1 X33.962 Y142.144 E35.17229
G1 X33.105 Y141.857 E35.20235
G1 X32.278 Y141.496 E35.23236
G1 X31.485 Y141.063 E35.26241
G1 X30.734 Y140.562 E35.29244
G1 X30.03 Y139.996 E35.32248
G1 X29.379 Y139.37 E35.35252
G1 X28.786 Y138.689 E35.38256
G1 X28.256 Y137.958 E35.41259
G1 X27.792 Y137.183 E35.44263
G1 X27.398 Y136.37 E35.47268
G1 X27.078 Y135.526 E35.5027
G1 X26.834 Y134.656 E35.53275
G1 X26.668 Y133.768 E35.5628
G1 X26.571 Y132.613 E35.60135
G1 X26.562 Y132.28 E35.61243
G1 X26.558 Y132.004 E35.62161
G1 X26.558 Y86.02 E37.15104
G1 X26.559 Y85.882 E37.15563
G1 X26.568 Y85.217 E37.17775
G1 X26.62 Y84.315 E37.20781
G1 X26.752 Y83.422 E37.23783
G1 X26.962 Y82.544 E37.26786
G1 X27.249 Y81.687 E37.29792
G1 X27.611 Y80.86 E37.32794
G1 X28.044 Y80.068 E37.35796
G1 X28.546 Y79.317 E37.38801
G1 X29.113 Y78.613 E37.41807
G1 X29.739 Y77.963 E37.44809
G1 X30.42 Y77.37 E37.47812
G1 X31.152 Y76.84 E37.50818
G1 X31.927 Y76.377 E37.53821
G1 X32.74 Y75.984 E37.56824
G1 F2400 E33.06824
G1 F300 Z0.4
G0 F6000 X75.258 Y92.346 Z0.4
;TYPE:SUPPORT-INTERFACE
G1 F300 Z0.2
G1 F2400 E37.56824
G1 F900 X106.258 Y92.346 E38.5993
G1 X106.258 Y104.346 E38.99843
G1 X75.258 Y104.346 E40.02949
G1 X75.258 Y92.346 E40.42861
G1 F2400 E35.92861
G1 F300 Z0.4
G0 F6000 X83.138 Y94.381 Z0.4
G1 F300 Z0.2
G1 F2400 E40.42861
G1 F900 X82.417 Y101.978 E40.68242
G1 X82.805 Y102.404 E40.70159
G1 X98.891 Y102.41 E41.23661
G1 X99.28 Y101.985 E41.25577
G1 X98.568 Y94.39 E41.50949
G1 X98.159 Y94.017 E41.5279
G1 X96.015 Y94.009 E41.59921
G1 X83.548 Y94.009 E42.01387
G1 X83.138 Y94.381 E42.03228
G0 F6000 X83.625 Y93.808
G1 F900 X82.363 Y92.546 E42.09164
G1 F2400 E37.59164
G1 F300 Z0.4
G0 F6000 X83.948 Y92.545 Z0.4
G1 F300 Z0.2
G1 F2400 E42.09164
G1 F900 X75.458 Y101.035 E42.49099
G1 F2400 E37.99099
G1 F300 Z0.4
G0 F6000 X75.457 Y102.61 Z0.4
G1 F300 Z0.2
G1 F2400 E42.49099
G1 F900 X76.992 Y104.145 E42.56319
G0 F6000 X75.741 Y104.146
G1 F900 X82.667 Y97.22 E42.88897
G0 F6000 X82.752 Y96.329
G1 F900 X78.969 Y92.546 E43.06691
G1 F2400 E38.56691
G1 F300 Z0.4
G0 F6000 X80.554 Y92.545 Z0.4
G1 F300 Z0.2
G1 F2400 E43.06691
G1 F900 X75.458 Y97.641 E43.30661
G1 F2400 E38.80661
G1 F300 Z0.4
G0 F6000 X75.457 Y99.216 Z0.4
G1 F300 Z0.2
G1 F2400 E43.30661
G1 F900 X80.386 Y104.145 E43.53845
G0 F6000 X79.135 Y104.146
G1 F900 X82.312 Y100.969 E43.68789
G1 F2400 E39.18789
G1 F300 Z0.4
G0 F6000 X82.458 Y99.429 Z0.4
G1 F300 Z0.2
G1 F2400 E43.68789
G1 F900 X75.575 Y92.546 E44.01164
G1 F2400 E39.51164
G1 F300 Z0.4
G0 F6000 X77.16 Y92.545 Z0.4
G1 F300 Z0.2
G1 F2400 E44.01164
G1 F900 X75.458 Y94.247 E44.0917
G1 F2400 E39.5917
G1 F300 Z0.4
G0 F6000 X75.457 Y95.822 Z0.4
G1 F300 Z0.2
G1 F2400 E44.0917
G1 F900 X83.78 Y104.145 E44.48319
G0 F6000 X82.529 Y104.146
G1 F900 X84.072 Y102.603 E44.55577
G1 F2400 E40.05577
G1 F300 Z0.4
G0 F6000 X85.634 Y102.604 Z0.4
G1 F300 Z0.2
G1 F2400 E44.55577
G1 F900 X87.174 Y104.145 E44.62823
G0 F6000 X85.924 Y104.146
G1 F900 X87.465 Y102.604 E44.70073
G1 F2400 E40.20073
G1 F300 Z0.4
G0 F6000 X89.029 Y102.606 Z0.4
G1 F300 Z0.2
G1 F2400 E44.70073
G1 F900 X90.569 Y104.145 E44.77315
G0 F6000 X89.318 Y104.146
G1 F900 X90.858 Y102.606 E44.84558
G1 F2400 E40.34558
G1 F300 Z0.4
G0 F6000 X92.424 Y102.606 Z0.4
G1 F300 Z0.2
G1 F2400 E44.84558
G1 F900 X93.963 Y104.145 E44.91797
G0 F6000 X92.712 Y104.146
G1 F900 X94.251 Y102.606 E44.99039
G1 F2400 E40.49039
G1 F300 Z0.4
G0 F6000 X95.82 Y102.608 Z0.4
G1 F300 Z0.2
G1 F2400 E44.99039
G1 F900 X97.357 Y104.145 E45.06268
G0 F6000 X96.106 Y104.146
G1 F900 X97.644 Y102.608 E45.13503
G0 F6000 X99.091 Y102.485
G1 F900 X100.751 Y104.145 E45.21311
G0 F6000 X99.5 Y104.146
G1 F900 X106.056 Y97.589 E45.5215
G1 F2400 E41.0215
G1 F300 Z0.4
G0 F6000 X106.057 Y99.269 Z0.4
G1 F300 Z0.2
G1 F2400 E45.5215
G1 F900 X99.334 Y92.546 E45.83773
G1 F2400 E41.33773
G1 F300 Z0.4
G0 F6000 X100.918 Y92.545 Z0.4
G1 F300 Z0.2
G1 F2400 E45.83773
G1 F900 X98.794 Y94.67 E45.93766
G0 F6000 X98.869 Y95.474
G1 F900 X106.057 Y102.663 E46.27579
G1 F2400 E41.77579
G1 F300 Z0.4
G0 F6000 X106.056 Y100.984 Z0.4
G1 F300 Z0.2
G1 F2400 E46.27579
G1 F900 X102.894 Y104.146 E46.42452
G0 F6000 X104.145 Y104.145
G1 F900 X99.221 Y99.221 E46.65613
G0 F6000 X99.085 Y97.773
G1 F900 X104.313 Y92.545 E46.90204
G1 F2400 E42.40204
G1 F300 Z0.4
G0 F6000 X102.728 Y92.546 Z0.4
G1 F300 Z0.2
G1 F2400 E46.90204
G1 F900 X106.057 Y95.875 E47.05862
G1 F2400 E42.55862
G1 F300 Z0.4
G0 F6000 X106.056 Y94.195 Z0.4
G1 F300 Z0.2
G1 F2400 E47.05862
G1 F900 X99.376 Y100.875 E47.37283
G1 F2400 E42.87283
G1 F300 Z0.4
G0 F6000 X97.206 Y93.812 Z0.4
G1 F300 Z0.2
G1 F2400 E47.37283
G1 F900 X95.94 Y92.546 E47.43238
G0 F6000 X96.259 Y93.81
G1 F900 X97.524 Y92.545 E47.49188
G1 F2400 E42.99188
G1 F300 Z0.4
G0 F6000 X94.13 Y92.545 Z0.4
G1 F300 Z0.2
G1 F2400 E47.49188
G1 F900 X92.867 Y93.809 E47.55131
G0 F6000 X93.808 Y93.808
G1 F900 X92.546 Y92.546 E47.61067
G1 F2400 E43.11067
G1 F300 Z0.4
G0 F6000 X90.736 Y92.545 Z0.4
G1 F300 Z0.2
G1 F2400 E47.61067
G1 F900 X89.473 Y93.809 E47.6701
G0 F6000 X90.414 Y93.808
G1 F900 X89.152 Y92.546 E47.72947
G1 F2400 E43.22947
G1 F300 Z0.4
G0 F6000 X87.342 Y92.545 Z0.4
G1 F300 Z0.2
G1 F2400 E47.72947
G1 F900 X86.078 Y93.809 E47.78892
G0 F6000 X87.02 Y93.808
G1 F900 X85.757 Y92.546 E47.8483
G1 F2400 E43.3483
G1 F300 Z0.4
;MESH:Geh??use2Oben.stl
G0 F6000 X144.158 Y131.746 Z0.4
;TYPE:WALL-INNER
G1 F300 Z0.2
G1 F2400 E47.8483
G1 F900 X37.358 Y131.746 E51.40049
G1 X37.358 Y130.951 E51.42693
G1 X143.959 Y130.946 E54.97249
G1 X144.158 Y130.946 E54.97911
G1 X144.158 Y131.145 E54.98339
G1 X144.158 Y131.746 E55.00338
G0 F6000 X144.558 Y132.146
;TYPE:WALL-OUTER
G1 F900 X36.958 Y132.146 E58.58217
G1 X36.958 Y130.551 E58.63522
G1 X144.558 Y130.546 E62.21401
G1 X144.558 Y132.146 E62.26723
G0 F6000 X143.774 Y131.329
;TYPE:SKIN
G1 F900 X143.915 Y131.187 E62.27465
G1 X143.225 Y131.345 E62.30091
G1 X125.406 Y131.346 E62.96195
G1 X70.252 Y131.346 E65.00802
G1 X54.131 Y131.347 E65.60607
G1 X38.009 Y131.347 E66.20415
G1 X37.599 Y131.502 E66.22041
G1 F2400 E61.72041
G1 F300 Z0.4
G0 F6000 X108.658 Y106.746 Z0.4
;TYPE:WALL-INNER
G1 F300 Z0.2
G1 F2400 E66.22041
G1 F900 X108.658 Y89.946 E66.77918
G1 X72.858 Y89.946 E67.9699
G1 X72.858 Y106.746 E68.52867
G1 X108.658 Y106.746 E69.71938
G0 F6000 X108.258 Y106.346
G1 F900 X108.258 Y90.346 E70.25154
G1 X73.258 Y90.346 E71.41565
G1 X73.258 Y106.346 E71.94781
G1 X108.258 Y106.346 E73.11191
G0 F6000 X107.858 Y105.946
G1 F900 X107.858 Y90.746 E73.61747
G1 X73.658 Y90.746 E74.75496
G1 X73.658 Y105.946 E75.26052
G1 X107.858 Y105.946 E76.39801
G0 F6000 X107.458 Y105.546
;TYPE:WALL-OUTER
G1 F900 X107.458 Y91.146 E76.87696
G1 X74.058 Y91.146 E77.98785
G1 X74.058 Y105.546 E78.46679
G1 X107.458 Y105.546 E79.57768
G1 F2400 E75.07768
G1 F300 Z0.4
G0 F6000 X143.358 Y128.946 Z0.4
;TYPE:WALL-INNER
G1 F300 Z0.2
G1 F2400 E79.57768
G1 F900 X38.158 Y128.946 E83.07665
G1 X38.158 Y86.746 E84.48023
G1 X143.358 Y86.746 E87.97919
G1 X143.358 Y128.946 E89.38277
G0 F6000 X143.758 Y129.346
G1 F900 X37.758 Y129.346 E92.90834
G1 X37.758 Y86.346 E94.33853
G1 X143.758 Y86.346 E97.8641
G1 X143.758 Y129.346 E99.29429
G0 F6000 X144.158 Y129.746
G1 F900 X37.358 Y129.746 E102.84647
G1 X37.358 Y85.946 E104.30327
G1 X144.158 Y85.946 E107.85545
G1 X144.158 Y129.746 E109.31224
G0 F6000 X144.558 Y130.146
;TYPE:WALL-OUTER
G1 F900 X36.958 Y130.146 E112.89103
G1 X36.958 Y85.546 E114.37444
G1 X144.558 Y85.546 E117.95323
G1 X144.558 Y130.146 E119.43663
G1 F2400 E114.93663
G1 F300 Z0.4
G0 F6000 X142.968 Y128.556 Z0.4
;TYPE:SKIN
G1 F300 Z0.2
G1 F2400 E119.43663
G1 F900 X38.548 Y128.556 E122.90965
G1 X38.548 Y87.136 E124.28729
G1 X142.968 Y87.136 E127.76031
G1 X142.968 Y128.556 E129.13794
G1 F2400 E124.63794
G1 F300 Z0.4
G0 F6000 X109.048 Y107.136 Z0.4
G1 F300 Z0.2
G1 F2400 E129.13794
G1 F900 X109.048 Y89.556 E129.72266
G1 X72.468 Y89.556 E130.93931
G1 X72.468 Y107.136 E131.52403
G1 X109.048 Y107.136 E132.74068
