;FLAVOR:Marlin
;TIME:15833
;Filament used: 8.6005m
;Layer height: 0.2
;MINX:71.75
;MINY:58.379
;MINZ:0.2
;MAXX:148.25
;MAXY:168.379
;MAXZ:38
;Generated with Cura_SteamEngine 4.4.1
M140 S60
M105
M190 S60
M104 S240
M105
M109 S240
M82 ;absolute extrusion mode
M201 X500.00 Y500.00 Z100.00 E5000.00 ;Setup machine max acceleration
M203 X500.00 Y500.00 Z10.00 E50.00 ;Setup machine max feedrate
M204 P500.00 R1000.00 T500.00 ;Setup Print/Retract/Travel acceleration
M205 X8.00 Y8.00 Z0.40 E5.00 ;Setup Jerk
M220 S100 ;Reset Feedrate
M221 S100 ;Reset Flowrate

G28 ;Home

G92 E0 ;Reset Extruder
G1 Z2.0 F3000 ;Move Z Axis up
G1 X10.1 Y20 Z0.28 F5000.0 ;Move to start position
G1 X10.1 Y200.0 Z0.28 F1500.0 E15 ;Draw the first line
G1 X10.4 Y200.0 Z0.28 F5000.0 ;Move to side a little
G1 X10.4 Y20 Z0.28 F1500.0 E30 ;Draw the second line
G92 E0 ;Reset Extruder
G1 Z2.0 F3000 ;Move Z Axis up

G92 E0
G92 E0
G1 F2400 E-4.5
;LAYER_COUNT:190
;LAYER:0
M107
G1 F300 Z0.4
G0 F6000 X73.368 Y59.555 Z0.4
;TYPE:SKIRT
G1 F300 Z0.2
G1 F2400 E0
G1 F900 X73.696 Y59.192 E0.01627
G1 X74.079 Y58.887 E0.03256
G1 X74.507 Y58.649 E0.04884
G1 X74.967 Y58.483 E0.06511
G1 X75.448 Y58.394 E0.08138
G1 X75.75 Y58.379 E0.09144
G1 X145.25 Y58.379 E2.40302
G1 X145.738 Y58.419 E2.4193
G1 X146.213 Y58.538 E2.43559
G1 X146.662 Y58.732 E2.45186
G1 X147.074 Y58.997 E2.46815
G1 X147.437 Y59.325 E2.48442
G1 X147.742 Y59.708 E2.50071
G1 X147.98 Y60.136 E2.51699
G1 X148.146 Y60.596 E2.53326
G1 X148.235 Y61.077 E2.54953
G1 X148.25 Y61.379 E2.55959
G1 X148.25 Y165.379 E6.01864
G1 X148.21 Y165.867 E6.03493
G1 X148.091 Y166.342 E6.05121
G1 X147.897 Y166.791 E6.06748
G1 X147.632 Y167.203 E6.08377
G1 X147.304 Y167.566 E6.10005
G1 X146.921 Y167.871 E6.11633
G1 X146.493 Y168.109 E6.13262
G1 X146.033 Y168.275 E6.14888
G1 X145.552 Y168.364 E6.16515
G1 X145.25 Y168.379 E6.17521
G1 X75.75 Y168.379 E8.48679
G1 X75.262 Y168.339 E8.50308
G1 X74.787 Y168.22 E8.51936
G1 X74.338 Y168.026 E8.53563
G1 X73.926 Y167.761 E8.55192
G1 X73.563 Y167.433 E8.5682
G1 X73.258 Y167.05 E8.58448
G1 X73.02 Y166.622 E8.60077
G1 X72.854 Y166.162 E8.61703
G1 X72.765 Y165.681 E8.6333
G1 X72.75 Y165.379 E8.64336
G1 X72.75 Y105.602 E10.63155
G1 X72.596 Y105.468 E10.63834
G1 X72.285 Y105.09 E10.65462
G1 X72.04 Y104.666 E10.67091
G1 X71.867 Y104.208 E10.68719
G1 X71.77 Y103.728 E10.70348
G1 X71.75 Y103.379 E10.71511
G1 X71.75 Y68.394 E11.87871
G1 X71.79 Y67.906 E11.895
G1 X71.909 Y67.431 E11.91128
G1 X72.103 Y66.982 E11.92755
G1 X72.368 Y66.57 E11.94385
G1 X72.696 Y66.207 E11.96012
G1 X72.75 Y66.164 E11.96241
G1 X72.75 Y61.379 E12.12156
G1 X72.79 Y60.891 E12.13785
G1 X72.909 Y60.416 E12.15414
G1 X73.103 Y59.967 E12.1704
G1 X73.368 Y59.555 E12.1867
G0 F6000 X73.765 Y59.7
G1 F900 X74.088 Y59.379 E12.20184
G1 X74.463 Y59.12 E12.217
G1 X74.877 Y58.93 E12.23215
G1 X75.318 Y58.815 E12.24731
G1 X75.75 Y58.779 E12.26173
G1 X145.25 Y58.779 E14.57331
G1 X145.704 Y58.819 E14.58847
G1 X146.144 Y58.937 E14.60362
G1 X146.556 Y59.131 E14.61876
G1 X146.929 Y59.394 E14.63394
G1 X147.25 Y59.717 E14.64909
G1 X147.509 Y60.092 E14.66425
G1 X147.699 Y60.506 E14.6794
G1 X147.814 Y60.947 E14.69456
G1 X147.85 Y61.379 E14.70897
G1 X147.85 Y165.379 E18.16803
G1 X147.81 Y165.833 E18.18319
G1 X147.692 Y166.273 E18.19834
G1 X147.498 Y166.685 E18.21349
G1 X147.235 Y167.058 E18.22867
G1 X146.912 Y167.379 E18.24381
G1 X146.537 Y167.638 E18.25897
G1 X146.123 Y167.828 E18.27412
G1 X145.682 Y167.943 E18.28928
G1 X145.25 Y167.979 E18.3037
G1 X75.75 Y167.979 E20.61528
G1 X75.296 Y167.939 E20.63043
G1 X74.856 Y167.821 E20.64559
G1 X74.444 Y167.627 E20.66073
G1 X74.071 Y167.364 E20.67591
G1 X73.75 Y167.041 E20.69106
G1 X73.491 Y166.666 E20.70622
G1 X73.301 Y166.252 E20.72137
G1 X73.186 Y165.811 E20.73653
G1 X73.15 Y165.379 E20.75094
G1 X73.15 Y105.423 E22.74509
G1 X73.103 Y105.391 E22.74698
G1 X72.777 Y105.073 E22.76213
G1 X72.512 Y104.702 E22.77729
G1 X72.315 Y104.291 E22.79245
G1 X72.193 Y103.852 E22.8076
G1 X72.15 Y103.379 E22.8234
G1 X72.15 Y68.394 E23.98701
G1 X72.19 Y67.94 E24.00217
G1 X72.308 Y67.5 E24.01732
G1 X72.502 Y67.088 E24.03246
G1 X72.765 Y66.715 E24.04764
G1 X73.088 Y66.394 E24.06279
G1 X73.15 Y66.351 E24.0653
G1 X73.15 Y61.379 E24.23067
G1 X73.19 Y60.925 E24.24583
G1 X73.308 Y60.485 E24.26098
G1 X73.502 Y60.073 E24.27612
G1 X73.765 Y59.7 E24.2913
G0 F6000 X73.901 Y60.188
G1 F900 X74.16 Y59.859 E24.30523
G1 X74.477 Y59.585 E24.31917
G1 X74.84 Y59.376 E24.3331
G1 X75.237 Y59.24 E24.34706
G1 X75.75 Y59.179 E24.36424
G1 X145.25 Y59.179 E26.67582
G1 X145.667 Y59.219 E26.68975
G1 X146.069 Y59.337 E26.70369
G1 X146.441 Y59.53 E26.71762
G1 X146.77 Y59.789 E26.73155
G1 X147.044 Y60.106 E26.74549
G1 X147.253 Y60.469 E26.75942
G1 X147.389 Y60.866 E26.77338
G1 X147.45 Y61.379 E26.79056
G1 X147.45 Y165.379 E30.24961
G1 X147.41 Y165.796 E30.26355
G1 X147.292 Y166.198 E30.27748
G1 X147.099 Y166.57 E30.29142
G1 X146.84 Y166.899 E30.30535
G1 X146.523 Y167.173 E30.31928
G1 X146.16 Y167.382 E30.33321
G1 X145.763 Y167.518 E30.34717
G1 X145.25 Y167.579 E30.36435
G1 X75.75 Y167.579 E32.67593
G1 X75.333 Y167.539 E32.68987
G1 X74.931 Y167.421 E32.7038
G1 X74.559 Y167.228 E32.71774
G1 X74.23 Y166.969 E32.73167
G1 X73.956 Y166.652 E32.7456
G1 X73.747 Y166.289 E32.75953
G1 X73.611 Y165.892 E32.77349
G1 X73.55 Y165.379 E32.79067
G1 X73.55 Y105.218 E34.79164
G1 X73.255 Y104.993 E34.80398
G1 X72.976 Y104.68 E34.81792
G1 X72.762 Y104.32 E34.83185
G1 X72.619 Y103.926 E34.84579
G1 X72.55 Y103.379 E34.86413
G1 X72.55 Y68.394 E36.02774
G1 X72.59 Y67.977 E36.04167
G1 X72.708 Y67.575 E36.05561
G1 X72.901 Y67.203 E36.06954
G1 X73.16 Y66.874 E36.08347
G1 X73.477 Y66.6 E36.09741
G1 X73.55 Y66.558 E36.10021
G1 X73.55 Y61.379 E36.27246
G1 X73.59 Y60.962 E36.2864
G1 X73.708 Y60.56 E36.30033
G1 X73.901 Y60.188 E36.31427
G0 F6000 X74.298 Y60.315
G1 F900 X74.553 Y60.034 E36.32689
G1 X74.862 Y59.814 E36.33951
G1 X75.209 Y59.662 E36.35211
G1 X75.75 Y59.579 E36.37031
G1 X145.25 Y59.579 E38.68189
G1 X145.627 Y59.619 E38.6945
G1 X145.987 Y59.737 E38.7071
G1 X146.314 Y59.927 E38.71968
G1 X146.595 Y60.182 E38.7323
G1 X146.815 Y60.491 E38.74491
G1 X146.967 Y60.838 E38.75751
G1 X147.05 Y61.379 E38.77572
G1 X147.05 Y165.379 E42.23477
G1 X147.01 Y165.756 E42.24738
G1 X146.892 Y166.116 E42.25998
G1 X146.702 Y166.443 E42.27256
G1 X146.447 Y166.724 E42.28518
G1 X146.138 Y166.944 E42.2978
G1 X145.791 Y167.096 E42.3104
G1 X145.25 Y167.179 E42.3286
G1 X75.75 Y167.179 E44.64018
G1 X75.373 Y167.139 E44.65279
G1 X75.013 Y167.021 E44.66539
G1 X74.686 Y166.831 E44.67797
G1 X74.405 Y166.576 E44.69059
G1 X74.185 Y166.267 E44.70321
G1 X74.033 Y165.92 E44.71581
G1 X73.95 Y165.379 E44.73401
G1 X73.95 Y104.983 E46.74279
G1 X73.709 Y104.847 E46.75199
G1 X73.425 Y104.597 E46.76458
G1 X73.199 Y104.292 E46.7772
G1 X73.042 Y103.947 E46.78981
G1 X72.961 Y103.577 E46.80241
G1 X72.95 Y103.379 E46.80901
G1 X72.95 Y68.394 E47.97261
G1 X72.99 Y68.017 E47.98522
G1 X73.108 Y67.657 E47.99782
G1 X73.298 Y67.33 E48.0104
G1 X73.553 Y67.049 E48.02302
G1 X73.862 Y66.829 E48.03564
G1 X73.95 Y66.79 E48.03884
G1 X73.95 Y61.379 E48.21881
G1 X73.99 Y61.002 E48.23142
G1 X74.108 Y60.642 E48.24402
G1 X74.298 Y60.315 E48.2566
G0 F6000 X74.695 Y60.458
G1 F900 X74.943 Y60.235 E48.26769
G1 X75.237 Y60.076 E48.27881
G1 X75.561 Y59.992 E48.28994
G1 X75.75 Y59.979 E48.29624
G1 X145.25 Y59.979 E50.60782
G1 X145.582 Y60.019 E50.61894
G1 X145.894 Y60.136 E50.63002
G1 X146.171 Y60.324 E50.64116
G1 X146.394 Y60.572 E50.65225
G1 X146.553 Y60.866 E50.66337
G1 X146.637 Y61.19 E50.6745
G1 X146.65 Y61.379 E50.6808
G1 X146.65 Y165.379 E54.13986
G1 X146.61 Y165.711 E54.15098
G1 X146.493 Y166.023 E54.16206
G1 X146.305 Y166.3 E54.1732
G1 X146.057 Y166.523 E54.18429
G1 X145.763 Y166.682 E54.19541
G1 X145.439 Y166.766 E54.20654
G1 X145.25 Y166.779 E54.21284
G1 X75.75 Y166.779 E56.52442
G1 X75.418 Y166.739 E56.53554
G1 X75.106 Y166.622 E56.54662
G1 X74.829 Y166.434 E56.55776
G1 X74.606 Y166.186 E56.56885
G1 X74.447 Y165.892 E56.57997
G1 X74.363 Y165.568 E56.5911
G1 X74.35 Y165.379 E56.5974
G1 X74.35 Y104.712 E58.61519
G1 X74.125 Y104.632 E58.62314
G1 X73.846 Y104.448 E58.63425
G1 X73.619 Y104.204 E58.64534
G1 X73.456 Y103.912 E58.65646
G1 X73.366 Y103.591 E58.66755
G1 X73.35 Y103.379 E58.67462
G1 X73.35 Y68.394 E59.83823
G1 X73.39 Y68.062 E59.84935
G1 X73.507 Y67.75 E59.86043
G1 X73.695 Y67.473 E59.87156
G1 X73.943 Y67.25 E59.88266
G1 X74.237 Y67.091 E59.89377
G1 X74.35 Y67.062 E59.89765
G1 X74.35 Y61.379 E60.08667
G1 X74.39 Y61.047 E60.09779
G1 X74.507 Y60.735 E60.10888
G1 X74.695 Y60.458 E60.12001
G0 F6000 X74.906 Y60.843
G1 F900 X75.089 Y60.628 E60.1294
G1 X75.325 Y60.474 E60.13878
G1 X75.595 Y60.391 E60.14817
G1 X75.75 Y60.379 E60.15334
G1 X145.25 Y60.379 E62.46492
G1 X145.529 Y60.419 E62.47429
G1 X145.786 Y60.535 E62.48367
G1 X146.001 Y60.718 E62.49306
G1 X146.155 Y60.954 E62.50244
G1 X146.238 Y61.224 E62.51183
G1 X146.25 Y61.379 E62.517
G1 X146.25 Y165.379 E65.97606
G1 X146.21 Y165.658 E65.98543
G1 X146.094 Y165.915 E65.99481
G1 X145.911 Y166.13 E66.0042
G1 X145.675 Y166.284 E66.01357
G1 X145.405 Y166.367 E66.02297
G1 X145.25 Y166.379 E66.02814
G1 X75.75 Y166.379 E68.33972
G1 X75.471 Y166.339 E68.34909
G1 X75.214 Y166.223 E68.35847
G1 X74.999 Y166.04 E68.36786
G1 X74.845 Y165.804 E68.37723
G1 X74.762 Y165.534 E68.38663
G1 X74.75 Y165.379 E68.3918
G1 X74.75 Y104.377 E70.42073
G1 X74.486 Y104.344 E70.42958
G1 X74.227 Y104.231 E70.43898
G1 X74.01 Y104.051 E70.44836
G1 X73.852 Y103.818 E70.45772
G1 X73.765 Y103.55 E70.46709
G1 X73.75 Y103.379 E70.4728
G1 X73.75 Y68.394 E71.63641
G1 X73.79 Y68.115 E71.64578
G1 X73.906 Y67.858 E71.65516
G1 X74.089 Y67.643 E71.66455
G1 X74.325 Y67.489 E71.67392
G1 X74.736 Y67.394 E71.68795
G1 X74.75 Y67.394 E71.68842
G1 X74.75 Y61.379 E71.88848
G1 X74.79 Y61.1 E71.89785
G1 X74.906 Y60.843 E71.90723
G0 F6000 X75.303 Y60.978
G1 F900 X75.476 Y60.845 E71.91449
G1 X75.75 Y60.779 E71.92386
G1 X145.25 Y60.779 E74.23544
G1 X145.465 Y60.819 E74.24272
G1 X145.651 Y60.932 E74.24996
G1 X145.784 Y61.105 E74.25721
G1 X145.85 Y61.379 E74.26659
G1 X145.85 Y165.379 E77.72564
G1 X145.81 Y165.594 E77.73292
G1 X145.697 Y165.78 E77.74015
G1 X145.524 Y165.913 E77.74741
G1 X145.25 Y165.979 E77.75679
G1 X75.75 Y165.979 E80.06837
G1 X75.535 Y165.939 E80.07564
G1 X75.349 Y165.826 E80.08288
G1 X75.216 Y165.653 E80.09014
G1 X75.15 Y165.379 E80.09951
G1 X75.15 Y103.973 E82.14188
G1 X74.76 Y103.979 E82.15485
G1 X74.544 Y103.943 E82.16214
G1 X74.356 Y103.832 E82.1694
G1 X74.221 Y103.661 E82.17665
G1 X74.15 Y103.379 E82.18632
G1 X74.15 Y68.394 E83.34992
G1 X74.19 Y68.179 E83.3572
G1 X74.303 Y67.993 E83.36444
G1 X74.476 Y67.86 E83.37169
G1 X74.742 Y67.794 E83.38081
G1 X75.15 Y67.788 E83.39438
G1 X75.15 Y61.379 E83.60754
G1 X75.19 Y61.164 E83.61482
G1 X75.303 Y60.978 E83.62206
G0 F6000 X75.589 Y61.26
G1 F900 X75.75 Y61.179 E83.62805
G1 X145.25 Y61.179 E85.93963
G1 X145.369 Y61.218 E85.9438
G1 X145.45 Y61.379 E85.94979
G1 X145.45 Y165.379 E89.40884
G1 X145.411 Y165.498 E89.41301
G1 X145.25 Y165.579 E89.419
G1 X75.75 Y165.579 E91.73058
G1 X75.631 Y165.54 E91.73475
G1 X75.55 Y165.379 E91.74074
G1 X75.55 Y103.566 E93.79665
G1 X74.753 Y103.579 E93.82316
G1 X74.634 Y103.542 E93.82731
G1 X74.55 Y103.379 E93.83341
G1 X74.55 Y68.394 E94.99701
G1 X74.589 Y68.275 E95.00118
G1 X74.747 Y68.194 E95.00708
G1 X75.55 Y68.183 E95.03379
G1 X75.55 Y61.379 E95.2601
G1 X75.589 Y61.26 E95.26426
G1 F2400 E90.76426
G1 F300 Z0.4
;MESH:Geh??use1B.stl
G0 F6000 X75.95 Y165.179 Z0.4
;TYPE:WALL-OUTER
G1 F300 Z0.2
G1 F2400 E95.26426
G1 F900 X75.95 Y103.16 E97.32702
G1 X74.95 Y103.176 E97.36029
G1 X74.95 Y68.591 E98.51059
G1 X75.551 Y68.582 E98.53058
G1 X75.555 Y68.741 E98.53587
G1 X75.95 Y68.737 E98.54901
G1 X75.95 Y61.579 E98.78708
G1 X145.05 Y61.579 E101.08536
G1 X145.05 Y165.179 E104.53111
G1 X75.95 Y165.179 E106.82938
G1 F2400 E102.32938
G1 F300 Z0.4
G0 F6000 X93.042 Y99.561 Z0.4
G1 F300 Z0.2
G1 F2400 E106.82938
G1 F900 X93.676 Y99.414 E106.85103
G1 X94.255 Y99.118 E106.87266
G1 X94.746 Y98.694 E106.89424
G1 X95.123 Y98.163 E106.9159
G1 X95.36 Y97.556 E106.93757
G1 X95.446 Y96.913 E106.95915
G1 X95.378 Y96.267 E106.98075
G1 X95.156 Y95.654 E107.00243
G1 X94.791 Y95.115 E107.02409
G1 X94.311 Y94.679 E107.04565
G1 X93.739 Y94.369 E107.06729
G1 X93.108 Y94.205 E107.08898
G1 X92.458 Y94.197 E107.1106
G1 X91.824 Y94.344 E107.13224
G1 X91.245 Y94.64 E107.15387
G1 X90.754 Y95.064 E107.17545
G1 X90.377 Y95.595 E107.19711
G1 X90.14 Y96.202 E107.21878
G1 X90.054 Y96.845 E107.24036
G1 X90.122 Y97.491 E107.26196
G1 X90.344 Y98.104 E107.28365
G1 X90.709 Y98.643 E107.3053
G1 X91.189 Y99.079 E107.32687
G1 X91.761 Y99.389 E107.34851
G1 X92.392 Y99.553 E107.37019
G1 X93.042 Y99.561 E107.39181
G0 F6000 X93.085 Y99.962
;TYPE:WALL-INNER
G1 F900 X93.814 Y99.793 E107.4167
G1 X94.48 Y99.452 E107.44159
G1 X95.044 Y98.965 E107.46637
G1 X95.478 Y98.354 E107.4913
G1 X95.75 Y97.657 E107.51618
G1 X95.849 Y96.919 E107.54095
G1 X95.771 Y96.177 E107.56576
G1 X95.515 Y95.471 E107.59074
G1 X95.095 Y94.851 E107.61565
G1 X94.544 Y94.35 E107.64042
G1 X93.887 Y93.994 E107.66527
G1 X93.162 Y93.806 E107.69018
G1 X92.415 Y93.796 E107.71503
G1 X91.686 Y93.965 E107.73992
G1 X91.02 Y94.306 E107.76481
G1 X90.456 Y94.793 E107.78959
G1 X90.022 Y95.404 E107.81452
G1 X89.75 Y96.101 E107.8394
G1 X89.651 Y96.839 E107.86417
G1 X89.729 Y97.581 E107.88898
G1 X89.985 Y98.287 E107.91396
G1 X90.405 Y98.907 E107.93887
G1 X90.956 Y99.408 E107.96364
G1 X91.613 Y99.764 E107.98849
G1 X92.338 Y99.952 E108.0134
G1 X93.085 Y99.962 E108.03825
G0 F6000 X93.128 Y100.363
G1 F900 X93.952 Y100.172 E108.06638
G1 X94.705 Y99.786 E108.09453
G1 X95.342 Y99.236 E108.12252
G1 X95.833 Y98.545 E108.15071
G1 X96.14 Y97.758 E108.17881
G1 X96.252 Y96.925 E108.20676
G1 X96.164 Y96.087 E108.23479
G1 X95.874 Y95.288 E108.26306
G1 X95.399 Y94.587 E108.29122
G1 X94.777 Y94.021 E108.31919
G1 X94.035 Y93.619 E108.34726
G1 X93.216 Y93.407 E108.3754
G1 X92.372 Y93.395 E108.40347
G1 X91.548 Y93.586 E108.43161
G1 X90.795 Y93.972 E108.45975
G1 X90.158 Y94.522 E108.48774
G1 X89.667 Y95.213 E108.51594
G1 X89.36 Y96 E108.54403
G1 X89.248 Y96.833 E108.57199
G1 X89.336 Y97.671 E108.60001
G1 X89.626 Y98.47 E108.62828
G1 X90.101 Y99.171 E108.65645
G1 X90.723 Y99.737 E108.68442
G1 X91.465 Y100.139 E108.71249
G1 X92.284 Y100.351 E108.74063
G1 X93.128 Y100.363 E108.7687
G0 F6000 X93.171 Y100.764
G1 F900 X94.09 Y100.551 E108.80008
G1 X94.93 Y100.12 E108.83148
G1 X95.64 Y99.507 E108.86268
G1 X96.188 Y98.736 E108.89414
G1 X96.53 Y97.859 E108.92545
G1 X96.655 Y96.931 E108.95659
G1 X96.557 Y95.997 E108.98783
G1 X96.233 Y95.105 E109.01939
G1 X95.703 Y94.323 E109.05081
G1 X95.01 Y93.692 E109.08198
G1 X94.183 Y93.244 E109.11327
G1 X93.27 Y93.008 E109.14463
G1 X92.329 Y92.994 E109.17593
G1 X91.41 Y93.207 E109.20731
G1 X90.57 Y93.638 E109.23871
G1 X89.86 Y94.251 E109.26991
G1 X89.312 Y95.022 E109.30137
G1 X88.97 Y95.899 E109.33268
G1 X88.845 Y96.827 E109.36382
G1 X88.943 Y97.761 E109.39506
G1 X89.267 Y98.653 E109.42662
G1 X89.797 Y99.435 E109.45804
G1 X90.49 Y100.066 E109.48921
G1 X91.317 Y100.514 E109.5205
G1 X92.23 Y100.75 E109.55186
G1 X93.171 Y100.764 E109.58316
G1 F2400 E105.08316
G1 F300 Z0.4
G0 F6000 X85.877 Y118.543 Z0.4
;TYPE:WALL-OUTER
G1 F300 Z0.2
G1 F2400 E109.58316
G1 F900 X87.094 Y118.242 E109.62486
G1 X88.204 Y117.66 E109.66655
G1 X89.144 Y116.829 E109.70828
G1 X89.855 Y115.797 E109.74996
G1 X90.301 Y114.624 E109.7917
G1 X90.451 Y113.379 E109.83341
G1 X90.301 Y112.134 E109.87511
G1 X89.855 Y110.961 E109.91685
G1 X89.144 Y109.929 E109.95854
G1 X88.204 Y109.098 E110.00027
G1 X87.094 Y108.516 E110.04195
G1 X85.877 Y108.215 E110.08365
G1 X84.623 Y108.215 E110.12536
G1 X83.406 Y108.516 E110.16705
G1 X82.296 Y109.098 E110.20874
G1 X81.356 Y109.929 E110.25047
G1 X80.645 Y110.961 E110.29215
G1 X80.199 Y112.134 E110.33389
G1 X80.049 Y113.379 E110.3756
G1 X80.199 Y114.624 E110.41731
G1 X80.645 Y115.797 E110.45905
G1 X81.356 Y116.829 E110.50073
G1 X82.296 Y117.66 E110.54246
G1 X83.406 Y118.242 E110.58414
G1 X84.623 Y118.543 E110.62584
G1 X85.877 Y118.543 E110.66755
